; HEADER_BLOCK_START
; generated by OrcaSlicer 2.3.0 on 2025-08-21 at 17:01:47
; total layer number: 61
;_GP_TOTAL_LAYER_NUMBER_PLACEHOLDER
; filament_density: 1.03
; filament_diameter: 1.75
; max_z_height: 12.32
; HEADER_BLOCK_END

; THUMBNAIL_BLOCK_START

;
; THUMBNAIL_BLOCK_END

; THUMBNAIL_BLOCK_START

;
; THUMBNAIL_BLOCK_END

; external perimeters extrusion width = 0.40mm
; perimeters extrusion width = 0.40mm
; infill extrusion width = 0.45mm
; solid infill extrusion width = 0.40mm
; top infill extrusion width = 0.40mm
; support material extrusion width = 0.40mm
; first layer extrusion width = 0.50mm

; EXECUTABLE_BLOCK_START
EXCLUDE_OBJECT_DEFINE NAME=antenna_base_mount-Body.stl_id_0_copy_0 CENTER=150,150 POLYGON=[[136.3,142.09],[150,134.181],[163.7,142.09],[163.7,157.91],[150,165.819],[136.3,157.91],[136.3,142.09]]
M73 P0 R11
M106 S0
M106 P2 S0
;TYPE:Custom
; Start macro: Heat bed and nozzle simultaneously
M104 S150                                           ; Preheat nozzle to 150°C (non-blocking)
M140 S100        ; Set bed target temperature (non-blocking)
M190 S100        ; Wait for bed to reach target temperature
M109 S150                                           ; Wait for nozzle to reach 150°C
PRINT_START EXTRUDER=260 BED=100
M106 P3 S255
G90
G21
M83 ; use relative distances for extrusion
; Filament gcode
M106 S0
M106 P2 S0
;LAYER_CHANGE
;Z:0.32
;HEIGHT:0.32
;BEFORE_LAYER_CHANGE
;0.32
G92 E0

G1 E-.8 F1800
;AFTER_LAYER_CHANGE
;0.32
;_SET_FAN_SPEED_CHANGING_LAYER
SET_VELOCITY_LIMIT ACCEL=500 ACCEL_TO_DECEL=250
SET_VELOCITY_LIMIT SQUARE_CORNER_VELOCITY=9
G1 Z.72 F21000
G1 X135.595 Y138.445
G1 Z.72
G1 Z.32
G1 E.8 F1800
;TYPE:Skirt
;WIDTH:0.5
G1 F3000
G1 X148.245 Y131.141 E.79631
G1 X149.842 Y130.675 E.09069
G1 X151.755 Y131.141 E.10733
G1 X165.455 Y139.051 E.86239
G1 X166.657 Y140.2 E.09069
G1 X167.21 Y142.09 E.10733
G1 X167.21 Y157.91 E.86239
G1 X166.815 Y159.526 E.09069
G1 X165.455 Y160.949 E.10733
G1 X151.755 Y168.859 E.86239
G1 X150.158 Y169.325 E.09069
G1 X148.245 Y168.859 E.10733
G1 X134.545 Y160.949 E.86239
G1 X133.343 Y159.8 E.09069
G1 X132.79 Y157.91 E.10733
G1 X132.79 Y142.09 E.86239
G1 X133.185 Y140.474 E.09069
G1 X134.545 Y139.051 E.10733
G1 X135.56 Y138.465 E.0639
G1 X135.776 Y138.838 F21000
G1 F3000
G1 X148.461 Y131.515 E.79849
G1 X149.962 Y131.103 E.08485
G1 X151.539 Y131.515 E.08888
G1 X165.239 Y139.424 E.86239
G1 X166.347 Y140.518 E.08485
G1 X166.778 Y142.09 E.08888
G1 X166.778 Y157.91 E.86239
G1 X166.385 Y159.416 E.08485
G1 X165.239 Y160.576 E.08888
G1 X151.539 Y168.485 E.86239
G1 X150.038 Y168.897 E.08485
G1 X148.461 Y168.485 E.08888
G1 X134.761 Y160.576 E.86239
G1 X133.653 Y159.482 E.08485
G1 X133.222 Y157.91 E.08888
G1 X133.222 Y142.09 E.86239
G1 X133.615 Y140.584 E.08485
G1 X134.761 Y139.424 E.08888
G1 X135.741 Y138.858 E.06172
G1 X135.957 Y139.232 F21000
G1 F3000
G1 X148.677 Y131.888 E.80068
G1 X150.074 Y131.535 E.07858
M73 P1 R11
G1 X151.323 Y131.888 E.0708
G1 X165.023 Y139.798 E.86239
G1 X166.028 Y140.831 E.07858
G1 X166.347 Y142.09 E.0708
G1 X166.347 Y157.91 E.86239
G1 X165.955 Y159.297 E.07858
G1 X165.023 Y160.202 E.0708
G1 X151.323 Y168.112 E.86239
G1 X149.926 Y168.465 E.07858
G1 X148.677 Y168.112 E.0708
G1 X134.977 Y160.202 E.86239
G1 X133.972 Y159.169 E.07858
G1 X133.653 Y157.91 E.0708
G1 X133.653 Y142.09 E.86239
G1 X134.045 Y140.703 E.07858
G1 X134.977 Y139.798 E.0708
G1 X135.922 Y139.252 E.05954
G1 X136.138 Y139.625 F21000
G1 F3000
G1 X148.892 Y132.262 E.80286
G1 X150.176 Y131.972 E.07176
G1 X151.108 Y132.262 E.05319
G1 X164.808 Y140.171 E.86239
G1 X165.701 Y141.139 E.07176
G1 X165.916 Y142.09 E.05319
G1 X165.916 Y157.91 E.86239
G1 X165.525 Y159.167 E.07176
G1 X164.808 Y159.829 E.05319
G1 X151.108 Y167.738 E.86239
G1 X149.824 Y168.028 E.07176
G1 X148.892 Y167.738 E.05319
G1 X135.192 Y159.829 E.86239
G1 X134.299 Y158.862 E.07176
G1 X134.084 Y157.91 E.05319
G1 X134.084 Y142.09 E.86239
G1 X134.475 Y140.833 E.07176
G1 X135.192 Y140.171 E.05319
G1 X136.103 Y139.645 E.05736
; printing object antenna_base_mount-Body.stl id:0 copy 0
G1 E-.56 F1800
;WIPE_START
G1 F3000
G1 X136.969 Y139.145 E-.24
;WIPE_END
EXCLUDE_OBJECT_START NAME=antenna_base_mount-Body.stl_id_0_copy_0
G1 Z.72 F21000
G1 X157.25 Y145.814 Z.72
G1 Z.32
G1 E.8 F1800
;TYPE:Support
G1 F3000
G1 X157.25 Y154.186 E.45638
G1 X151.353 Y157.59 E.3712
G1 X151.291 Y157.579 E.00346
G1 X151.078 Y157.496 E.01243
G1 X150.67 Y157.67 E.02418
G1 X149.74 Y157.88 E.05199
G1 X149.191 Y157.904 E.02995
G1 X144.343 Y155.106 E.30512
G1 X144.232 Y154.919 E.01185
G1 X144.011 Y154.337 E.03397
G1 X143.463 Y154.041 E.03396
G1 X142.75 Y153.473 E.04969
G1 X142.75 Y145.814 E.41752
G1 X150 Y141.628 E.45638
G1 X157.194 Y145.782 E.45285
G1 X156.71 Y154.274 F21000
G1 F3000
M73 P2 R11
G1 X156.71 Y145.95 E.45374
G1 X156.23 Y145.674 E.03017
G1 X156.23 Y154.326 E.47169
G1 X155.751 Y154.603 E.03017
G1 X155.751 Y145.397 E.50186
G1 X155.272 Y145.12 E.03017
G1 X155.272 Y154.88 E.53203
G1 X154.793 Y155.156 E.03017
G1 X154.793 Y144.844 E.5622
G1 X154.313 Y144.567 E.03017
G1 X154.313 Y155.433 E.59237
G1 X153.834 Y155.71 E.03017
G1 X153.834 Y144.29 E.62253
G1 X153.355 Y144.014 E.03017
G1 X153.355 Y155.986 E.6527
G1 X152.876 Y156.263 E.03017
G1 X152.876 Y143.737 E.68287
G1 X152.396 Y143.46 E.03017
G1 X152.396 Y156.54 E.71304
G1 X151.917 Y156.817 E.03017
G1 X151.917 Y143.183 E.74321
G1 X151.438 Y142.907 E.03017
G1 X151.438 Y157.093 E.77337
G1 X151.307 Y157.169 E.00823
G1 X151.071 Y157.077 E.01378
G1 X150.959 Y157.125 E.00668
G1 X150.959 Y142.63 E.79021
G1 X150.479 Y142.353 E.03017
G1 X150.479 Y157.315 E.81563
G1 X150 Y157.423 E.02679
G1 X150 Y142.077 E.83662
G1 X149.521 Y142.353 E.03017
G1 X149.521 Y157.501 E.82579
G1 X149.287 Y157.512 E.01277
G1 X149.041 Y157.37 E.01544
G1 X149.041 Y142.63 E.80354
G1 X148.562 Y142.907 E.03017
G1 X148.562 Y157.093 E.77337
G1 X148.083 Y156.817 E.03017
G1 X148.083 Y143.183 E.74321
G1 X147.604 Y143.46 E.03017
G1 X147.604 Y156.54 E.71304
G1 X147.124 Y156.263 E.03017
M73 P3 R11
G1 X147.124 Y143.737 E.68287
G1 X146.645 Y144.014 E.03017
G1 X146.645 Y155.986 E.6527
G1 X146.166 Y155.71 E.03017
G1 X146.166 Y144.29 E.62253
G1 X145.687 Y144.567 E.03017
G1 X145.687 Y155.433 E.59237
G1 X145.207 Y155.156 E.03017
G1 X145.207 Y144.844 E.5622
G1 X144.728 Y145.12 E.03017
G1 X144.728 Y154.88 E.53203
G1 X144.625 Y154.82 E.00652
G1 X144.582 Y154.75 E.00447
G1 X144.323 Y154.064 E.03998
G1 X144.249 Y154.024 E.00458
G1 X144.249 Y145.397 E.47028
G1 X143.77 Y145.674 E.03017
G1 X143.77 Y153.766 E.44114
G1 X143.677 Y153.716 E.00572
G1 X143.29 Y153.408 E.02698
G1 X143.29 Y145.726 E.41874
G1 E-.56 F1800
;WIPE_START
G1 F3000
G1 X143.29 Y146.726 E-.24
;WIPE_END
G1 Z.72 F21000
G1 X162.587 Y157.267 Z.72
G1 Z.32
G1 E.8 F1800
;TYPE:Inner wall
;WIDTH:0.5
G1 F3000
G1 X150 Y164.535 E.79235
G1 X137.413 Y157.267 E.79235
G1 X137.413 Y142.733 E.79235
G1 X150 Y135.465 E.79235
G1 X162.587 Y142.733 E.79235
G1 X162.587 Y157.227 E.79017
G1 X163.019 Y157.516 F21000
G1 F3000
G1 X150 Y165.033 E.8195
G1 X136.981 Y157.516 E.8195
G1 X136.981 Y142.484 E.8195
G1 X150 Y134.967 E.8195
M73 P4 R11
G1 X163.019 Y142.484 E.8195
G1 X163.019 Y157.476 E.81732
G1 X163.45 Y157.765 F21000
;TYPE:Outer wall
G1 F3000
G1 X150 Y165.531 E.84665
G1 X136.55 Y157.765 E.84665
G1 X136.55 Y142.235 E.84665
G1 X150 Y134.469 E.84665
G1 X163.45 Y142.235 E.84665
G1 X163.45 Y157.725 E.84447
G1 E-.56 F1800
;WIPE_START
G1 F3000
G1 X162.585 Y158.227 E-.24
;WIPE_END
G1 Z.72 F21000
G1 X149.786 Y159.971 Z.72
G1 Z.32
G1 E.8 F1800
;TYPE:Inner wall
G1 F3000
G1 X149.584 Y159.936 E.01121
G1 X141.727 Y155.399 E.49459
G1 X141.5 Y155.224 E.01561
G1 X141.332 Y155.005 E.01508
G1 X141.187 Y154.607 E.02305
G1 X141.187 Y145.535 E.49459
G1 X141.225 Y145.251 E.01561
G1 X141.332 Y144.995 E.01508
G1 X141.604 Y144.672 E.02305
G1 X149.461 Y140.135 E.49459
G1 X149.726 Y140.026 E.01561
G1 X150 Y139.991 E.01508
G1 X150.274 Y140.026 E.01508
G1 X150.539 Y140.135 E.01561
G1 X158.273 Y144.601 E.48686
G1 X158.5 Y144.776 E.01561
G1 X158.668 Y144.995 E.01508
G1 X158.775 Y145.251 E.01508
G1 X158.813 Y145.535 E.01561
G1 X158.813 Y154.465 E.48686
G1 X158.775 Y154.749 E.01561
G1 X158.668 Y155.005 E.01508
G1 X158.396 Y155.328 E.02305
G1 X150.539 Y159.865 E.49459
G1 X150.274 Y159.974 E.01561
G1 X150 Y160.009 E.01508
G1 X149.825 Y159.978 E.00967
G1 X149.828 Y159.532 F21000
G1 F3000
G1 X149.677 Y159.491 E.00856
G1 X141.942 Y155.026 E.48686
G1 X141.705 Y154.789 E.01826
G1 X141.619 Y154.465 E.01826
G1 X141.619 Y145.535 E.48686
G1 X141.705 Y145.211 E.01826
G1 X141.942 Y144.974 E.01826
G1 X149.677 Y140.509 E.48686
G1 X150 Y140.422 E.01826
G1 X150.323 Y140.509 E.01826
G1 X158.058 Y144.974 E.48686
G1 X158.295 Y145.211 E.01826
G1 X158.381 Y145.535 E.01826
G1 X158.381 Y154.465 E.48686
G1 X158.295 Y154.789 E.01826
G1 X158.058 Y155.026 E.01826
G1 X150.323 Y159.491 E.48686
G1 X150 Y159.578 E.01826
M73 P5 R11
G1 X149.867 Y159.542 E.00752
G1 X149.933 Y159.141 F21000
;TYPE:Outer wall
G1 F3000
G1 X142.158 Y154.652 E.48942
G1 X142.05 Y154.498 E.01026
G1 X142.05 Y145.535 E.48864
G1 X142.13 Y145.364 E.01026
G1 X149.892 Y140.882 E.48864
G1 X150.067 Y140.859 E.00963
G1 X157.842 Y145.348 E.48942
G1 X157.95 Y145.488 E.00963
G1 X157.95 Y154.465 E.48942
G1 X157.883 Y154.629 E.00963
G1 X150.108 Y159.118 E.48942
G1 X149.972 Y159.136 E.00745
G1 E-.56 F1800
;WIPE_START
G1 F3000
G1 X149.105 Y158.638 E-.24
;WIPE_END
G1 Z.72 F21000
G1 X160.355 Y141.593 Z.72
G1 Z.32
G1 E.8 F1800
;TYPE:Bottom surface
;WIDTH:0.503644
G1 F5172.758
G1 X162.264 Y143.502 E.1484
G1 X162.264 Y144.117 E.03382
G1 X159.43 Y141.283 E.22033
G1 X157.975 Y140.443 E.09239
G1 X162.264 Y144.732 E.33348
G1 X162.264 Y145.347 E.03382
G1 X156.519 Y139.603 E.44664
G1 X155.064 Y138.762 E.09239
G1 X162.264 Y145.963 E.5598
G1 X162.264 Y146.578 E.03382
G1 X153.608 Y137.922 E.67295
G1 X152.153 Y137.082 E.09239
G1 X162.264 Y147.193 E.78611
G1 X162.264 Y147.808 E.03382
G1 X150.697 Y136.242 E.89926
G1 X150 Y135.839 E.04426
G1 X149.797 Y135.956 E.0129
G1 X157.787 Y143.946 E.6212
G1 X158.441 Y144.324 E.04155
G1 X158.731 Y144.547 E.02007
G1 X158.949 Y144.833 E.0198
G1 X159.088 Y145.166 E.0198
G1 X159.1 Y145.26 E.00522
G1 X162.264 Y148.423 E.24596
G1 X162.264 Y149.038 E.03382
G1 X159.136 Y145.911 E.24317
G1 X159.136 Y146.526 E.03382
G1 X162.264 Y149.653 E.24317
G1 X162.264 Y150.269 E.03382
G1 X159.136 Y147.141 E.24317
G1 X159.136 Y147.756 E.03382
G1 X162.264 Y150.884 E.24317
G1 X162.264 Y151.499 E.03382
G1 X159.136 Y148.371 E.24317
G1 X159.136 Y148.986 E.03382
G1 X162.264 Y152.114 E.24317
G1 X162.264 Y152.729 E.03382
G1 X159.136 Y149.601 E.24317
G1 X159.136 Y150.217 E.03382
G1 X162.264 Y153.344 E.24317
G1 X162.264 Y153.959 E.03382
G1 X159.136 Y150.832 E.24317
G1 X159.136 Y151.447 E.03382
G1 X162.264 Y154.575 E.24317
G1 X162.264 Y155.19 E.03382
M73 P6 R11
G1 X159.136 Y152.062 E.24317
G1 X159.136 Y152.677 E.03382
G1 X162.264 Y155.805 E.24317
G1 X162.264 Y156.42 E.03382
G1 X159.136 Y153.292 E.24317
G1 X159.136 Y153.907 E.03382
G1 X162.264 Y157.035 E.24317
G1 X162.264 Y157.081 E.00249
G1 X161.903 Y157.289 E.02293
G1 X159.13 Y154.517 E.21554
G1 X159.088 Y154.834 E.01762
G1 X159.013 Y155.014 E.01071
G1 X161.513 Y157.514 E.19436
G1 X161.123 Y157.739 E.02476
G1 X158.776 Y155.393 E.18242
G1 X158.731 Y155.453 E.00414
G1 X158.443 Y155.675 E.01997
G1 X160.733 Y157.965 E.17803
G1 X160.343 Y158.19 E.02476
G1 X158.053 Y155.9 E.17801
G1 X157.663 Y156.125 E.02476
G1 X159.953 Y158.415 E.17801
G1 X159.563 Y158.64 E.02476
G1 X157.273 Y156.35 E.17801
G1 X156.883 Y156.576 E.02476
G1 X159.173 Y158.865 E.17801
G1 X158.783 Y159.09 E.02476
G1 X156.493 Y156.801 E.17801
G1 X156.103 Y157.026 E.02476
M73 P6 R10
G1 X158.393 Y159.316 E.17801
G1 X158.003 Y159.541 E.02476
G1 X155.713 Y157.251 E.17801
G1 X155.323 Y157.476 E.02476
G1 X157.613 Y159.766 E.17801
G1 X157.223 Y159.991 E.02476
G1 X154.933 Y157.701 E.17801
G1 X154.543 Y157.927 E.02476
G1 X156.833 Y160.216 E.17801
G1 X156.443 Y160.441 E.02476
G1 X154.153 Y158.152 E.17801
G1 X153.763 Y158.377 E.02476
G1 X156.053 Y160.666 E.17801
G1 X155.663 Y160.892 E.02476
G1 X153.373 Y158.602 E.17801
G1 X152.983 Y158.827 E.02476
G1 X155.273 Y161.117 E.17801
G1 X154.883 Y161.342 E.02476
G1 X152.593 Y159.052 E.17801
G1 X152.203 Y159.277 E.02476
G1 X154.493 Y161.567 E.17801
G1 X154.103 Y161.792 E.02476
G1 X151.813 Y159.503 E.17801
G1 X151.423 Y159.728 E.02476
G1 X153.713 Y162.017 E.17801
G1 X153.323 Y162.243 E.02476
G1 X151.033 Y159.953 E.17801
G1 X150.637 Y160.172 E.02488
G1 X152.933 Y162.468 E.17848
G1 X152.543 Y162.693 E.02476
G1 X150.163 Y160.313 E.18507
G1 X150 Y160.334 E.00902
G1 X149.643 Y160.287 E.0198
G1 X149.438 Y160.203 E.01218
G1 X152.153 Y162.918 E.21108
G1 X151.763 Y163.143 E.02476
G1 X148.035 Y159.415 E.28987
G1 X146.579 Y158.575 E.09239
G1 X151.373 Y163.368 E.37271
G1 X150.983 Y163.594 E.02476
G1 X145.124 Y157.734 E.45554
G1 X143.668 Y156.894 E.09239
G1 X150.735 Y163.961 E.54942
G1 E-.56 F1800
;WIPE_START
G1 F5172.758
G1 X150.028 Y163.254 E-.24
;WIPE_END
G1 Z.72 F21000
G1 X156.862 Y143.636 Z.72
G1 Z.32
M73 P7 R10
G1 E.8 F1800
G1 F5172.758
G1 X149.407 Y136.181 E.57959
G1 X149.017 Y136.407 E.02476
G1 X154.876 Y142.266 E.45553
G1 X153.421 Y141.425 E.09239
G1 X148.627 Y136.632 E.37269
G1 X148.237 Y136.857 E.02476
G1 X151.965 Y140.585 E.28986
G1 X150.695 Y139.852 E.08065
G1 X150.562 Y139.797 E.0079
G1 X147.847 Y137.082 E.21107
G1 X147.457 Y137.307 E.02476
G1 X149.837 Y139.687 E.18506
G1 X149.643 Y139.713 E.01078
G1 X149.363 Y139.828 E.01666
G1 X147.067 Y137.532 E.17848
G1 X146.677 Y137.757 E.02476
G1 X148.967 Y140.047 E.17801
G1 X148.577 Y140.272 E.02476
G1 X146.287 Y137.983 E.17801
G1 X145.897 Y138.208 E.02476
G1 X148.187 Y140.497 E.17801
G1 X147.797 Y140.723 E.02476
G1 X145.507 Y138.433 E.17801
G1 X145.117 Y138.658 E.02476
G1 X147.407 Y140.948 E.17801
G1 X147.017 Y141.173 E.02476
G1 X144.727 Y138.883 E.17801
G1 X144.337 Y139.108 E.02476
G1 X146.627 Y141.398 E.17801
G1 X146.237 Y141.623 E.02476
G1 X143.947 Y139.334 E.17801
G1 X143.557 Y139.559 E.02476
G1 X145.847 Y141.848 E.17801
G1 X145.457 Y142.074 E.02476
G1 X143.167 Y139.784 E.17801
G1 X142.777 Y140.009 E.02476
G1 X145.067 Y142.299 E.17801
G1 X144.677 Y142.524 E.02476
G1 X142.387 Y140.234 E.17801
G1 X141.997 Y140.459 E.02476
G1 X144.287 Y142.749 E.17801
G1 X143.897 Y142.974 E.02476
G1 X141.607 Y140.685 E.17801
G1 X141.217 Y140.91 E.02476
G1 X143.507 Y143.199 E.17801
G1 X143.117 Y143.424 E.02476
G1 X140.827 Y141.135 E.17801
G1 X140.437 Y141.36 E.02476
G1 X142.727 Y143.65 E.17801
G1 X142.337 Y143.875 E.02476
G1 X140.047 Y141.585 E.17801
G1 X139.657 Y141.81 E.02476
G1 X141.947 Y144.1 E.17801
G1 X141.557 Y144.325 E.02475
G1 X139.267 Y142.035 E.17803
G1 X138.877 Y142.261 E.02476
G1 X141.224 Y144.607 E.18242
G1 X141.051 Y144.833 E.01565
G1 X140.987 Y144.986 E.00909
G1 X138.487 Y142.486 E.19437
G1 X138.097 Y142.711 E.02476
G1 X140.87 Y145.483 E.21555
G1 X140.864 Y146.093 E.03349
G1 X137.736 Y142.965 E.24317
G1 X137.736 Y143.58 E.03382
G1 X140.864 Y146.708 E.24317
G1 X140.864 Y147.323 E.03382
G1 X137.736 Y144.195 E.24317
G1 X137.736 Y144.81 E.03382
G1 X140.864 Y147.938 E.24317
G1 X140.864 Y148.553 E.03382
G1 X137.736 Y145.425 E.24317
G1 X137.736 Y146.041 E.03382
G1 X140.864 Y149.168 E.24317
G1 X140.864 Y149.783 E.03382
M73 P8 R10
G1 X137.736 Y146.656 E.24317
G1 X137.736 Y147.271 E.03382
G1 X140.864 Y150.399 E.24317
G1 X140.864 Y151.014 E.03382
G1 X137.736 Y147.886 E.24317
G1 X137.736 Y148.501 E.03382
G1 X140.864 Y151.629 E.24317
G1 X140.864 Y152.244 E.03382
G1 X137.736 Y149.116 E.24317
G1 X137.736 Y149.731 E.03382
G1 X140.864 Y152.859 E.24317
G1 X140.864 Y153.474 E.03382
G1 X137.736 Y150.347 E.24317
G1 X137.736 Y150.962 E.03382
G1 X141.058 Y154.284 E.25826
G1 E-.56 F1800
;WIPE_START
G1 F5172.758
G1 X140.351 Y153.576 E-.24
;WIPE_END
G1 Z.72 F21000
G1 X137.542 Y151.383 Z.72
G1 Z.32
G1 E.8 F1800
G1 F5172.758
G1 X140.9 Y154.74 E.26105
G1 X140.912 Y154.834 E.00521
G1 X141.051 Y155.167 E.0198
G1 X141.269 Y155.453 E.0198
G1 X141.559 Y155.676 E.02007
G1 X142.213 Y156.054 E.04154
G1 X150.203 Y164.044 E.62121
G1 X150 Y164.161 E.01289
G1 X149.302 Y163.758 E.04428
