; HEADER_BLOCK_START
; generated by OrcaSlicer 2.3.0 on 2025-08-25 at 12:57:56
; total layer number: 48
;_GP_TOTAL_LAYER_NUMBER_PLACEHOLDER
; filament_density: 1.03
; filament_diameter: 1.75
; max_z_height: 9.72
; HEADER_BLOCK_END

; THUMBNAIL_BLOCK_START

;
; THUMBNAIL_BLOCK_END

; THUMBNAIL_BLOCK_START

;
; THUMBNAIL_BLOCK_END

; external perimeters extrusion width = 0.40mm
; perimeters extrusion width = 0.40mm
; infill extrusion width = 0.45mm
; solid infill extrusion width = 0.40mm
; top infill extrusion width = 0.40mm
; support material extrusion width = 0.40mm
; first layer extrusion width = 0.50mm

; EXECUTABLE_BLOCK_START
EXCLUDE_OBJECT_DEFINE NAME=antenna-support-antenna-support-base.stl_id_0_copy_0 CENTER=150,99.4018 POLYGON=[[137.3,92.0695],[150,84.7371],[162.7,92.0695],[162.7,106.734],[150,114.067],[137.3,106.734],[137.3,92.0695]]
M73 P0 R7
M106 S0
M106 P2 S0
;TYPE:Custom
; Start macro: Heat bed and nozzle simultaneously
M104 S150                                           ; Preheat nozzle to 150°C (non-blocking)
M140 S100        ; Set bed target temperature (non-blocking)
M190 S100        ; Wait for bed to reach target temperature
M109 S150                                           ; Wait for nozzle to reach 150°C
PRINT_START EXTRUDER=260 BED=100
M106 P3 S255
G90
G21
M83 ; use relative distances for extrusion
; Filament gcode
M106 S0
M106 P2 S0
;LAYER_CHANGE
;Z:0.32
;HEIGHT:0.32
;BEFORE_LAYER_CHANGE
;0.32
G92 E0

G1 E-.8 F1800
;AFTER_LAYER_CHANGE
;0.32
;_SET_FAN_SPEED_CHANGING_LAYER
SET_VELOCITY_LIMIT ACCEL=500 ACCEL_TO_DECEL=250
SET_VELOCITY_LIMIT SQUARE_CORNER_VELOCITY=9
G1 Z.72 F21000
G1 X136.437 Y88.515
G1 Z.72
G1 Z.32
G1 E.8 F1800
;TYPE:Skirt
;WIDTH:0.5
G1 F3000
G1 X148.245 Y81.698 E.74329
G1 X149.842 Y81.231 E.09069
G1 X151.755 Y81.698 E.10733
G1 X164.455 Y89.03 E.79944
G1 X165.657 Y90.18 E.09069
G1 X166.21 Y92.069 E.10733
G1 X166.21 Y106.734 E.79944
G1 X165.815 Y108.35 E.09069
G1 X164.455 Y109.774 E.10733
G1 X151.755 Y117.106 E.79944
G1 X150.158 Y117.573 E.09069
G1 X148.245 Y117.106 E.10733
G1 X135.545 Y109.774 E.79944
G1 X134.343 Y108.624 E.09069
G1 X133.79 Y106.734 E.10733
G1 X133.79 Y92.069 E.79944
G1 X134.185 Y90.453 E.09069
G1 X135.545 Y89.03 E.10733
G1 X136.403 Y88.535 E.05397
G1 X136.618 Y88.909 F21000
G1 F3000
G1 X148.461 Y82.071 E.74547
G1 X149.962 Y81.659 E.08485
G1 X151.539 Y82.071 E.08888
G1 X164.239 Y89.404 E.79944
G1 X165.347 Y90.497 E.08485
M73 P1 R7
G1 X165.778 Y92.069 E.08888
G1 X165.778 Y106.734 E.79944
G1 X165.385 Y108.24 E.08485
G1 X164.239 Y109.4 E.08888
G1 X151.539 Y116.732 E.79944
G1 X150.038 Y117.145 E.08485
G1 X148.461 Y116.732 E.08888
G1 X135.761 Y109.4 E.79944
G1 X134.653 Y108.306 E.08485
G1 X134.222 Y106.734 E.08888
G1 X134.222 Y92.069 E.79944
G1 X134.615 Y90.564 E.08485
G1 X135.761 Y89.404 E.08888
G1 X136.584 Y88.929 E.05179
G1 X136.799 Y89.302 F21000
G1 F3000
G1 X148.677 Y82.445 E.74765
G1 X150.074 Y82.091 E.07858
G1 X151.323 Y82.445 E.0708
G1 X164.023 Y89.777 E.79944
G1 X165.028 Y90.81 E.07858
G1 X165.347 Y92.069 E.0708
G1 X165.347 Y106.734 E.79944
G1 X164.955 Y108.121 E.07858
G1 X164.023 Y109.027 E.0708
G1 X151.323 Y116.359 E.79944
G1 X149.926 Y116.712 E.07858
G1 X148.677 Y116.359 E.0708
G1 X135.977 Y109.027 E.79944
G1 X134.972 Y107.993 E.07858
G1 X134.653 Y106.734 E.0708
G1 X134.653 Y92.069 E.79944
G1 X135.045 Y90.683 E.07858
G1 X135.977 Y89.777 E.0708
G1 X136.765 Y89.322 E.04961
M73 P2 R7
G1 X136.98 Y89.696 F21000
G1 F3000
G1 X148.892 Y82.818 E.74983
G1 X150.176 Y82.528 E.07176
G1 X151.108 Y82.818 E.05319
G1 X163.808 Y90.151 E.79944
G1 X164.701 Y91.118 E.07176
G1 X164.916 Y92.069 E.05319
G1 X164.916 Y106.734 E.79944
G1 X164.525 Y107.991 E.07176
G1 X163.808 Y108.653 E.05319
G1 X151.108 Y115.985 E.79944
G1 X149.824 Y116.275 E.07176
G1 X148.892 Y115.985 E.05319
G1 X136.192 Y108.653 E.79944
G1 X135.299 Y107.686 E.07176
G1 X135.084 Y106.734 E.05319
G1 X135.084 Y92.069 E.79944
G1 X135.475 Y90.813 E.07176
G1 X136.192 Y90.151 E.05319
G1 X136.946 Y89.716 E.04743
; printing object antenna-support-antenna-support-base.stl id:0 copy 0
G1 E-.56 F1800
;WIPE_START
G1 F3000
G1 X137.812 Y89.216 E-.24
;WIPE_END
EXCLUDE_OBJECT_START NAME=antenna-support-antenna-support-base.stl_id_0_copy_0
G1 Z.72 F21000
G1 X138.413 Y106.092 Z.72
G1 Z.32
G1 E.8 F1800
;TYPE:Inner wall
;WIDTH:0.5
G1 F3000
G1 X138.413 Y92.712 E.7294
G1 X150 Y86.022 E.7294
G1 X161.587 Y92.712 E.7294
G1 X161.587 Y106.092 E.7294
G1 X150 Y112.782 E.7294
M73 P3 R7
G1 X138.447 Y106.112 E.72722
G1 X137.981 Y106.341 F21000
G1 F3000
G1 X137.981 Y92.463 E.75655
G1 X150 Y85.524 E.75655
G1 X162.019 Y92.463 E.75655
G1 X162.019 Y106.341 E.75655
G1 X150 Y113.28 E.75655
G1 X138.016 Y106.361 E.75437
G1 X137.55 Y106.59 F21000
;TYPE:Outer wall
G1 F3000
G1 X137.55 Y92.214 E.78371
G1 X150 Y85.026 E.78371
G1 X162.45 Y92.214 E.78371
G1 X162.45 Y106.59 E.78371
G1 X150 Y113.778 E.78371
G1 X137.585 Y106.61 E.78153
M73 P4 R7
G1 E-.56 F1800
;WIPE_START
G1 F3000
G1 X137.582 Y105.61 E-.24
;WIPE_END
G1 Z.72 F21000
M73 P4 R6
G1 X154.154 Y96.546 Z.72
G1 Z.32
G1 E.8 F1800
;TYPE:Inner wall
G1 F3000
G1 X154.328 Y96.693 E.0124
G1 X154.51 Y97.009 E.0199
G1 X154.577 Y97.382 E.02067
G1 X154.577 Y101.422 E.22022
G1 X154.51 Y101.795 E.02067
G1 X154.328 Y102.111 E.0199
G1 X154.038 Y102.355 E.02067
G1 X150.539 Y104.375 E.22022
G1 X150.182 Y104.504 E.02067
G1 X149.818 Y104.504 E.0199
G1 X149.461 Y104.375 E.02067
G1 X145.962 Y102.355 E.22022
G1 X145.672 Y102.111 E.02067
G1 X145.49 Y101.795 E.0199
G1 X145.423 Y101.422 E.02067
G1 X145.423 Y97.382 E.22022
G1 X145.49 Y97.009 E.02067
G1 X145.672 Y96.693 E.0199
G1 X145.962 Y96.448 E.02067
G1 X149.461 Y94.428 E.22022
G1 X149.818 Y94.299 E.02067
G1 X150.182 Y94.299 E.0199
G1 X150.539 Y94.428 E.02067
G1 X154.038 Y96.448 E.22022
G1 X154.123 Y96.52 E.00609
G1 X153.88 Y96.871 F21000
G1 F3000
G1 X153.996 Y96.968 E.00827
G1 X154.105 Y97.158 E.01194
G1 X154.145 Y97.382 E.0124
G1 X154.145 Y101.422 E.22022
G1 X154.105 Y101.646 E.0124
G1 X153.996 Y101.835 E.01194
G1 X153.822 Y101.982 E.0124
G1 X150.323 Y104.002 E.22022
G1 X150.11 Y104.079 E.0124
G1 X149.891 Y104.079 E.01194
G1 X149.677 Y104.002 E.0124
G1 X146.178 Y101.982 E.22022
G1 X146.004 Y101.835 E.0124
G1 X145.895 Y101.646 E.01194
G1 X145.855 Y101.422 E.0124
G1 X145.855 Y97.382 E.22022
G1 X145.895 Y97.158 E.0124
G1 X146.004 Y96.968 E.01194
G1 X146.178 Y96.822 E.0124
G1 X149.677 Y94.802 E.22022
G1 X149.891 Y94.725 E.0124
G1 X150.11 Y94.725 E.01194
G1 X150.323 Y94.802 E.0124
G1 X153.822 Y96.822 E.22022
G1 X153.849 Y96.845 E.00195
G1 X153.606 Y97.195 F21000
;TYPE:Outer wall
G1 F3000
G1 X153.714 Y97.323 E.00912
G1 X153.714 Y101.422 E.22343
G1 X153.657 Y101.579 E.00912
G1 X150.108 Y103.628 E.22343
G1 X149.943 Y103.658 E.00912
G1 X146.394 Y101.608 E.22343
G1 X146.286 Y101.48 E.00912
G1 X146.286 Y97.382 E.22343
G1 X146.343 Y97.225 E.00912
G1 X149.892 Y95.175 E.22343
G1 X150.057 Y95.146 E.00912
G1 X153.572 Y97.175 E.22125
G1 E-.56 F1800
M73 P5 R6
;WIPE_START
G1 F3000
G1 X153.714 Y97.323 E-.04929
G1 X153.714 Y98.118 E-.19071
;WIPE_END
G1 Z.72 F21000
G1 X159.36 Y91.575 Z.72
G1 Z.32
G1 E.8 F1800
;TYPE:Bottom surface
;WIDTH:0.502697
G1 F4320.037
G1 X161.264 Y93.479 E.17725
G1 X161.264 Y94.093 E.0404
G1 X158.438 Y91.267 E.26308
G1 X156.986 Y90.429 E.11039
G1 X161.264 Y94.707 E.39828
G1 X161.264 Y95.321 E.0404
G1 X155.533 Y89.59 E.53347
G1 X154.081 Y88.752 E.11039
G1 X161.264 Y95.934 E.66867
G1 X161.264 Y96.548 E.0404
G1 X152.629 Y87.913 E.80387
G1 X151.177 Y87.075 E.11039
G1 X161.264 Y97.162 E.93906
G1 X161.264 Y97.776 E.0404
G1 X149.926 Y86.438 E1.05547
G1 X149.537 Y86.663 E.02958
G1 X161.264 Y98.39 E1.09169
G1 X161.264 Y99.003 E.0404
G1 X149.148 Y86.887 E1.12792
G1 X148.759 Y87.112 E.02958
G1 X161.264 Y99.617 E1.16414
G1 X161.264 Y100.231 E.0404
G1 X148.37 Y87.337 E1.20037
G1 X147.98 Y87.561 E.02958
G1 X161.264 Y100.845 E1.2366
G1 X161.264 Y101.459 E.0404
M73 P6 R6
G1 X147.591 Y87.786 E1.27282
G1 X147.202 Y88.011 E.02958
G1 X161.264 Y102.072 E1.30905
G1 X161.264 Y102.686 E.0404
G1 X146.813 Y88.235 E1.34527
G1 X146.424 Y88.46 E.02958
G1 X161.264 Y103.3 E1.3815
G1 X161.264 Y103.914 E.0404
G1 X154.9 Y97.55 E.59241
G1 X154.9 Y98.164 E.0404
G1 X161.264 Y104.528 E.59241
G1 X161.264 Y105.141 E.0404
G1 X154.9 Y98.778 E.59241
G1 X154.9 Y99.392 E.0404
G1 X161.264 Y105.755 E.59241
G1 X161.264 Y105.905 E.00986
G1 X160.97 Y106.075 E.02236
G1 X154.9 Y100.005 E.56502
G1 X154.9 Y100.619 E.0404
G1 X160.581 Y106.3 E.52879
G1 X160.191 Y106.524 E.02958
G1 X154.9 Y101.233 E.49257
G1 X154.878 Y101.67 E.0288
G1 X154.845 Y101.792 E.00831
G1 X159.802 Y106.749 E.46146
G1 X159.413 Y106.974 E.02958
G1 X154.651 Y102.211 E.44332
G1 X154.577 Y102.318 E.00857
M73 P7 R6
G1 X154.354 Y102.528 E.02014
G1 X159.024 Y107.198 E.43478
G1 X158.635 Y107.423 E.02958
G1 X153.976 Y102.764 E.43367
G1 X153.587 Y102.989 E.02958
G1 X158.246 Y107.648 E.43367
G1 X157.857 Y107.872 E.02958
G1 X153.198 Y103.214 E.43367
G1 X152.809 Y103.438 E.02958
G1 X157.467 Y108.097 E.43367
G1 X157.078 Y108.322 E.02958
G1 X152.42 Y103.663 E.43367
G1 X152.031 Y103.888 E.02958
G1 X156.689 Y108.546 E.43367
G1 X156.3 Y108.771 E.02958
G1 X151.642 Y104.112 E.43367
G1 X151.252 Y104.337 E.02958
G1 X155.911 Y108.996 E.43367
G1 X155.522 Y109.22 E.02958
G1 X150.863 Y104.562 E.43367
G1 X150.454 Y104.766 E.03012
G1 X155.133 Y109.445 E.43554
G1 X154.743 Y109.67 E.02958
G1 X149.91 Y104.836 E.44997
G1 X149.763 Y104.823 E.00974
G1 X149.525 Y104.761 E.01616
G1 X149.303 Y104.658 E.0161
G1 X148.865 Y104.405 E.03332
G1 X154.354 Y109.894 E.51103
G1 X153.965 Y110.119 E.02958
G1 X146.882 Y103.036 E.65936
G1 E-.56 F1800
;WIPE_START
G1 F4320.037
G1 X147.589 Y103.743 E-.24
;WIPE_END
G1 Z.72 F21000
G1 X153.117 Y95.767 Z.72
G1 Z.32
G1 E.8 F1800
G1 F4320.037
G1 X146.035 Y88.685 E.65935
G1 X145.646 Y88.909 E.02958
M73 P8 R6
G1 X151.135 Y94.399 E.51102
G1 X150.697 Y94.146 E.03331
G1 X150.475 Y94.043 E.0161
G1 X150.237 Y93.98 E.01616
G1 X150.09 Y93.968 E.00974
G1 X145.256 Y89.134 E.44997
G1 X144.867 Y89.359 E.02958
G1 X149.546 Y94.037 E.43554
G1 X149.137 Y94.242 E.03012
G1 X144.478 Y89.583 E.43367
G1 X144.089 Y89.808 E.02958
G1 X148.748 Y94.467 E.43367
G1 X148.358 Y94.691 E.02958
G1 X143.7 Y90.033 E.43367
G1 X143.311 Y90.257 E.02958
G1 X147.969 Y94.916 E.43367
G1 X147.58 Y95.141 E.02958
G1 X142.922 Y90.482 E.43367
G1 X142.533 Y90.707 E.02958
G1 X147.191 Y95.365 E.43367
G1 X146.802 Y95.59 E.02958
G1 X142.143 Y90.931 E.43367
G1 X141.754 Y91.156 E.02958
G1 X146.413 Y95.815 E.43367
G1 X146.024 Y96.039 E.02958
G1 X141.365 Y91.381 E.43367
G1 X140.976 Y91.605 E.02958
G1 X145.646 Y96.276 E.43478
G1 X145.423 Y96.485 E.02014
G1 X145.349 Y96.592 E.00858
G1 X140.587 Y91.83 E.44332
G1 X140.198 Y92.055 E.02958
G1 X145.155 Y97.012 E.46146
G1 X145.122 Y97.134 E.00831
G1 X145.1 Y97.571 E.0288
G1 X139.809 Y92.279 E.49257
G1 X139.419 Y92.504 E.02958
G1 X145.1 Y98.184 E.5288
G1 X145.1 Y98.798 E.0404
M73 P9 R6
G1 X139.03 Y92.729 E.56502
G1 X138.736 Y92.899 E.02236
G1 X138.736 Y93.048 E.00986
G1 X145.1 Y99.412 E.59241
G1 X145.1 Y100.026 E.0404
G1 X138.736 Y93.662 E.59241
G1 X138.736 Y94.276 E.0404
G1 X145.1 Y100.64 E.59241
G1 X145.1 Y101.253 E.0404
G1 X138.736 Y94.89 E.59241
G1 X138.736 Y95.504 E.0404
G1 X153.576 Y110.344 E1.38149
G1 X153.187 Y110.568 E.02958
G1 X138.736 Y96.117 E1.34527
G1 X138.736 Y96.731 E.0404
G1 X152.798 Y110.793 E1.30904
G1 X152.409 Y111.018 E.02958
G1 X138.736 Y97.345 E1.27282
G1 X138.736 Y97.959 E.0404
G1 X152.02 Y111.242 E1.23659
G1 X151.63 Y111.467 E.02958
G1 X138.736 Y98.573 E1.20037
G1 X138.736 Y99.186 E.0404
G1 X151.241 Y111.692 E1.16414
G1 X150.852 Y111.916 E.02958
M73 P10 R6
G1 X138.736 Y99.8 E1.12791
G1 X138.736 Y100.414 E.0404
G1 X150.463 Y112.141 E1.09169
G1 X150.074 Y112.366 E.02958
G1 X138.736 Y101.028 E1.05546
G1 X138.736 Y101.642 E.0404
G1 X148.823 Y111.729 E.93905
G1 X147.371 Y110.89 E.11039
G1 X138.736 Y102.255 E.80385
G1 X138.736 Y102.869 E.0404
G1 X145.919 Y110.052 E.66866
G1 X144.467 Y109.213 E.11039
G1 X138.736 Y103.483 E.53346
G1 X138.736 Y104.097 E.0404
G1 X143.014 Y108.375 E.39826
G1 X141.562 Y107.536 E.11039
G1 X138.736 Y104.711 E.26307
G1 X138.736 Y105.324 E.0404
G1 X140.64 Y107.228 E.17723
; stop printing object antenna-support-antenna-support-base.stl id:0 copy 0
;LAYER_CHANGE
;Z:0.52
;HEIGHT:0.2
;BEFORE_LAYER_CHANGE
;0.52
G92 E0

G1 E-.56 F1800
;WIPE_START
G1 F4320.037
G1 X139.933 Y106.521 E-.24
;WIPE_END
EXCLUDE_OBJECT_END NAME=antenna-support-antenna-support-base.stl_id_0_copy_0
;AFTER_LAYER_CHANGE
;0.52
;_SET_FAN_SPEED_CHANGING_LAYER
SET_VELOCITY_LIMIT ACCEL=5000 ACCEL_TO_DECEL=2500
M104 S250 ; set nozzle temperature
M140 S98 ; set bed temperature
; printing object antenna-support-antenna-support-base.stl id:0 copy 0
SET_VELOCITY_LIMIT ACCEL=7000 ACCEL_TO_DECEL=3500 SQUARE_CORNER_VELOCITY=12
EXCLUDE_OBJECT_START NAME=antenna-support-antenna-support-base.stl_id_0_copy_0
G1 Z.92 F21000
G1 X138.214 Y106.206 Z.92
G1 Z.52
G1 E.8 F1800
SET_VELOCITY_LIMIT ACCEL=5000 ACCEL_TO_DECEL=2500 SQUARE_CORNER_VELOCITY=7
;TYPE:Inner wall
;WIDTH:0.399999
G1 F10081.802
G1 X138.214 Y92.597 E.38387
G1 X150 Y85.793 E.38387
G1 X161.786 Y92.597 E.38387
G1 X161.786 Y106.206 E.38387
G1 X150 Y113.011 E.38387
G1 X138.249 Y106.226 E.38274
SET_VELOCITY_LIMIT ACCEL=7000 ACCEL_TO_DECEL=3500 SQUARE_CORNER_VELOCITY=12
G1 X137.857 Y106.413 F21000
SET_VELOCITY_LIMIT ACCEL=5000 ACCEL_TO_DECEL=2500 SQUARE_CORNER_VELOCITY=7
G1 F10081.802
G1 X137.857 Y92.391 E.3955
G1 X150 Y85.38 E.3955
G1 X162.143 Y92.391 E.3955
G1 X162.143 Y106.413 E.3955
G1 X150 Y113.423 E.3955
M73 P11 R6
G1 X137.892 Y106.433 E.39437
SET_VELOCITY_LIMIT ACCEL=7000 ACCEL_TO_DECEL=3500 SQUARE_CORNER_VELOCITY=12
G1 X137.5 Y106.619 F21000
SET_VELOCITY_LIMIT ACCEL=3000 ACCEL_TO_DECEL=1500 SQUARE_CORNER_VELOCITY=7
;TYPE:Outer wall
G1 F8400
G1 X137.5 Y92.185 E.40713
G1 X150 Y84.968 E.40713
G1 X162.5 Y92.185 E.40713
G1 X162.5 Y106.619 E.40713
G1 X150 Y113.836 E.40713
G1 X137.535 Y106.639 E.406
SET_VELOCITY_LIMIT ACCEL=7000 ACCEL_TO_DECEL=3500 SQUARE_CORNER_VELOCITY=12
G1 E-.58571 F1800
;WIPE_START
G1 F8400
G1 X137.532 Y105.639 E-.21429
;WIPE_END
G1 Z.92 F21000
G1 X154.028 Y96.697 Z.92
G1 Z.52
G1 E.8 F1800
SET_VELOCITY_LIMIT ACCEL=5000 ACCEL_TO_DECEL=2500 SQUARE_CORNER_VELOCITY=7
;TYPE:Inner wall
G1 F10081.802
G1 X154.172 Y96.819 E.00531
G1 X154.323 Y97.08 E.00852
G1 X154.378 Y97.389 E.00886
G1 X154.378 Y101.414 E.11353
G1 X154.323 Y101.723 E.00886
G1 X154.172 Y101.985 E.00852
G1 X153.932 Y102.187 E.00886
G1 X150.446 Y104.2 E.11353
G1 X150.151 Y104.306 E.00886
G1 X149.849 Y104.306 E.00852
G1 X149.554 Y104.2 E.00886
G1 X146.068 Y102.187 E.11353
G1 X145.828 Y101.985 E.00886
G1 X145.677 Y101.723 E.00852
G1 X145.622 Y101.414 E.00886
G1 X145.622 Y97.389 E.11353
G1 X145.677 Y97.08 E.00886
G1 X145.828 Y96.819 E.00852
G1 X146.068 Y96.616 E.00886
G1 X149.554 Y94.604 E.11353
G1 X149.849 Y94.497 E.00886
G1 X150.151 Y94.497 E.00852
G1 X150.446 Y94.604 E.00886
G1 X153.932 Y96.616 E.11353
G1 X153.997 Y96.671 E.00241
SET_VELOCITY_LIMIT ACCEL=7000 ACCEL_TO_DECEL=3500 SQUARE_CORNER_VELOCITY=12
G1 X153.819 Y96.991 F21000
SET_VELOCITY_LIMIT ACCEL=5000 ACCEL_TO_DECEL=2500 SQUARE_CORNER_VELOCITY=7
G1 F10081.802
G1 X153.949 Y97.122 E.00521
G1 X154.021 Y97.389 E.00782
G1 X154.021 Y101.414 E.11353
G1 X153.949 Y101.682 E.00782
G1 X153.753 Y101.878 E.00782
G1 X150.268 Y103.89 E.11353
G1 X150 Y103.962 E.00782
G1 X149.732 Y103.89 E.00782
G1 X146.247 Y101.878 E.11353
G1 X146.051 Y101.682 E.00782
G1 X145.979 Y101.414 E.00782
G1 X145.979 Y97.389 E.11353
G1 X146.051 Y97.122 E.00782
G1 X146.247 Y96.926 E.00782
G1 X149.732 Y94.913 E.11353
G1 X150 Y94.841 E.00782
G1 X150.268 Y94.913 E.00782
G1 X153.753 Y96.926 E.11353
G1 X153.79 Y96.963 E.00148
SET_VELOCITY_LIMIT ACCEL=7000 ACCEL_TO_DECEL=3500 SQUARE_CORNER_VELOCITY=12
G1 X153.575 Y97.235 F21000
SET_VELOCITY_LIMIT ACCEL=3000 ACCEL_TO_DECEL=1500 SQUARE_CORNER_VELOCITY=7
;TYPE:Outer wall
G1 F8400
G1 X153.664 Y97.362 E.00438
G1 X153.664 Y101.414 E.1143
G1 X153.598 Y101.555 E.00439
G1 X150.089 Y103.581 E.11429
G1 X149.934 Y103.595 E.00439
G1 X146.425 Y101.569 E.11429
G1 X146.336 Y101.441 E.00439
