; HEADER_BLOCK_START
; generated by OrcaSlicer 2.3.0 on 2025-08-24 at 21:22:56
; total layer number: 48
;_GP_TOTAL_LAYER_NUMBER_PLACEHOLDER
; filament_density: 1.03
; filament_diameter: 1.75
; max_z_height: 9.72
; HEADER_BLOCK_END

; THUMBNAIL_BLOCK_START

;
; THUMBNAIL_BLOCK_END

; THUMBNAIL_BLOCK_START

;
; THUMBNAIL_BLOCK_END

; external perimeters extrusion width = 0.40mm
; perimeters extrusion width = 0.40mm
; infill extrusion width = 0.45mm
; solid infill extrusion width = 0.40mm
; top infill extrusion width = 0.40mm
; support material extrusion width = 0.40mm
; first layer extrusion width = 0.50mm

; external perimeters extrusion width = 0.40mm
; perimeters extrusion width = 0.40mm
; infill extrusion width = 0.45mm
; solid infill extrusion width = 0.40mm
; top infill extrusion width = 0.40mm
; support material extrusion width = 0.40mm
; first layer extrusion width = 0.50mm

; EXECUTABLE_BLOCK_START
EXCLUDE_OBJECT_DEFINE NAME=antenna_base_mount-eye-Body.stl_id_0_copy_0 CENTER=159.909,145.075 POLYGON=[[151.931,136.478],[152.041,135.85],[152.239,134.799],[152.546,134.044],[152.896,133.224],[153.459,132.406],[153.872,131.825],[154.729,131.027],[155.123,130.664],[156.592,129.794],[158.212,129.257],[159.909,129.075],[161.606,129.257],[163.225,129.794],[164.694,130.664],[165.088,131.027],[165.945,131.825],[166.359,132.406],[166.921,133.224],[167.272,134.044],[167.578,134.799],[167.776,135.85],[167.886,136.478],[167.831,138.184],[163.859,161.075],[155.959,161.075],[151.986,138.184],[151.931,136.478]]
EXCLUDE_OBJECT_DEFINE NAME=antenna-support-Body.stl_id_1_copy_0 CENTER=138.082,148.099 POLYGON=[[125.382,140.767],[138.082,133.434],[150.782,140.767],[150.782,155.432],[138.082,162.764],[125.382,155.432],[125.382,140.767]]
M73 P0 R15
M106 S0
M106 P2 S0
;TYPE:Custom
; Start macro: Heat bed and nozzle simultaneously
M104 S150                                           ; Preheat nozzle to 150°C (non-blocking)
M140 S100        ; Set bed target temperature (non-blocking)
M190 S100        ; Wait for bed to reach target temperature
M109 S150                                           ; Wait for nozzle to reach 150°C
PRINT_START EXTRUDER=260 BED=100
M106 P3 S255
G90
G21
M83 ; use relative distances for extrusion
; Filament gcode
M106 S0
M106 P2 S0
;LAYER_CHANGE
;Z:0.32
;HEIGHT:0.32
;BEFORE_LAYER_CHANGE
;0.32
G92 E0

G1 E-.8 F1800
;AFTER_LAYER_CHANGE
;0.32
;_SET_FAN_SPEED_CHANGING_LAYER
SET_VELOCITY_LIMIT ACCEL=500 ACCEL_TO_DECEL=250
SET_VELOCITY_LIMIT SQUARE_CORNER_VELOCITY=9
G1 Z.72 F21000
G1 X129.788 Y134.171
G1 Z.72
G1 Z.32
G1 E.8 F1800
;TYPE:Skirt
;WIDTH:0.5
G1 F3000
G1 X136.327 Y130.395 E.41166
G1 X137.511 Y129.972 E.06852
G1 X157.662 Y126.647 E1.11338
G1 X159.53 Y126.416 E.10258
G1 X160.424 Y126.429 E.04875
G1 X161.822 Y126.587 E.07673
G1 X162.534 Y126.744 E.03973
G1 X164.404 Y127.395 E.10797
G1 X166.048 Y128.354 E.10373
G1 X167.04 Y129.143 E.0691
G1 X168.46 Y130.692 E.11454
G1 X169.354 Y132.112 E.09148
G1 X170.086 Y133.869 E.10374
G1 X170.473 Y135.572 E.09524
G1 X170.558 Y137.672 E.11454
G1 X170.432 Y138.817 E.0628
G1 X165.405 Y161.824 E1.28381
G1 X164.675 Y163.319 E.09069
G1 X163.338 Y164.309 E.09069
G1 X162.224 Y164.576 E.06247
G1 X138.33 Y166.265 E1.30582
G1 X136.327 Y165.803 E.11202
G1 X123.627 Y158.471 E.79944
G1 X122.425 Y157.321 E.09069
G1 X121.873 Y155.432 E.10733
G1 X121.873 Y140.767 E.79944
G1 X122.267 Y139.151 E.09069
G1 X123.627 Y137.727 E.10733
G1 X129.753 Y134.191 E.3856
G1 X129.969 Y134.564 F21000
G1 F3000
G1 X136.543 Y130.769 E.41384
G1 X137.581 Y130.397 E.0601
G1 X157.732 Y127.073 E1.11338
G1 X159.576 Y126.845 E.10128
G1 X160.382 Y126.859 E.04395
G1 X162.398 Y127.153 E.11106
G1 X164.217 Y127.784 E.10494
G1 X165.82 Y128.721 E.10122
G1 X166.737 Y129.449 E.06383
G1 X168.122 Y130.96 E.11177
G1 X168.965 Y132.298 E.0862
G1 X169.679 Y134.012 E.10123
G1 X169.99 Y135.297 E.07207
G1 X170.11 Y136.189 E.04903
G1 X170.126 Y137.67 E.08077
G1 X170.01 Y138.725 E.05784
G1 X164.983 Y161.732 E1.28381
G1 X164.278 Y163.119 E.08485
G1 X162.983 Y163.984 E.08485
G1 X162.193 Y164.145 E.04397
G1 X138.299 Y165.835 E1.30582
G1 X136.543 Y165.43 E.09825
G1 X123.843 Y158.097 E.79944
G1 X122.736 Y157.004 E.08485
G1 X122.304 Y155.432 E.08888
G1 X122.304 Y140.767 E.79944
G1 X122.697 Y139.261 E.08485
G1 X123.843 Y138.101 E.08888
G1 X129.934 Y134.584 E.38342
G1 X130.15 Y134.958 F21000
G1 F3000
G1 X136.759 Y131.142 E.41603
G1 X137.651 Y130.823 E.05168
G1 X157.802 Y127.498 E1.11338
G1 X159.623 Y127.274 E.09998
G1 X160.341 Y127.288 E.03916
G1 X162.262 Y127.562 E.1058
G1 X163.713 Y128.044 E.0833
G1 X164.565 Y128.448 E.05143
G1 X165.592 Y129.087 E.06594
G1 X166.433 Y129.755 E.05855
G1 X167.784 Y131.228 E.10899
G1 X168.575 Y132.485 E.08093
G1 X169.272 Y134.156 E.09872
G1 X169.569 Y135.392 E.0693
G1 X169.682 Y136.238 E.04652
G1 X169.695 Y137.669 E.078
G1 X169.589 Y138.633 E.05287
G1 X164.562 Y161.64 E1.28381
G1 X163.883 Y162.911 E.07858
M73 P1 R15
G1 X162.163 Y163.715 E.1035
G1 X138.269 Y165.404 E1.30582
G1 X136.759 Y165.056 E.08448
G1 X124.059 Y157.724 E.79944
G1 X123.054 Y156.691 E.07858
G1 X122.735 Y155.432 E.0708
G1 X122.735 Y140.767 E.79944
G1 X123.128 Y139.38 E.07858
G1 X124.059 Y138.474 E.0708
G1 X130.115 Y134.978 E.38124
G1 X130.331 Y135.351 F21000
G1 F3000
G1 X136.974 Y131.516 E.41821
G1 X137.722 Y131.248 E.04326
G1 X157.873 Y127.924 E1.11338
G1 X159.669 Y127.703 E.09869
G1 X160.3 Y127.717 E.03437
G1 X162.126 Y127.972 E.10054
G1 X163.577 Y128.453 E.0833
G1 X164.337 Y128.814 E.04589
G1 X165.364 Y129.453 E.06594
G1 X166.129 Y130.061 E.05327
G1 X167.447 Y131.497 E.10622
G1 X168.186 Y132.671 E.07565
G1 X168.865 Y134.3 E.09621
G1 X169.148 Y135.487 E.06653
G1 X169.253 Y136.287 E.04401
G1 X169.264 Y137.667 E.07523
G1 X169.167 Y138.541 E.04791
G1 X164.141 Y161.548 E1.28381
G1 X163.49 Y162.692 E.07176
G1 X162.132 Y163.285 E.08078
G1 X138.239 Y164.974 E1.30582
G1 X136.974 Y164.683 E.07072
G1 X124.274 Y157.35 E.79944
G1 X123.381 Y156.383 E.07176
G1 X123.167 Y155.432 E.05319
G1 X123.167 Y140.767 E.79944
G1 X123.558 Y139.51 E.07176
G1 X124.274 Y138.848 E.05319
G1 X130.296 Y135.371 E.37906
; printing object antenna_base_mount-eye-Body.stl id:0 copy 0
G1 E-.56 F1800
;WIPE_START
G1 F3000
G1 X131.162 Y134.871 E-.24
;WIPE_END
EXCLUDE_OBJECT_START NAME=antenna_base_mount-eye-Body.stl_id_0_copy_0
G1 Z.72 F21000
G1 X158.836 Y143.547 Z.72
G1 Z.32
G1 E.8 F1800
;TYPE:Inner wall
;WIDTH:0.5
G1 F3000
G1 X158.509 Y143.045 E.03264
;WIDTH:0.484508
G1 X158.351 Y142.959 E.00946
;WIDTH:0.468463
G1 X157.875 Y142.787 E.02555
G1 X157.238 Y142.499 E.03536
;WIDTH:0.460763
G1 X156.758 Y142.253 E.02671
G1 X156.026 Y141.698 E.04554
;WIDTH:0.460239
G1 X155.624 Y141.361 E.02593
G1 X154.78 Y140.309 E.06677
;WIDTH:0.456199
G1 X154.216 Y139.188 E.06146
;WIDTH:0.450872
G1 X153.914 Y137.978 E.06025
;WIDTH:0.458367
G1 X153.861 Y137.597 E.01893
;WIDTH:0.462747
G1 X153.86 Y136.613 E.04902
G1 X153.91 Y136.146 E.02339
;WIDTH:0.465529
G1 X154.1 Y135.33 E.04201
G1 X154.298 Y134.757 E.0304
;WIDTH:0.468475
G1 X154.597 Y134.149 E.03425
G1 X155.008 Y133.493 E.0391
;WIDTH:0.468812
G1 X155.331 Y133.098 E.0258
G1 X155.828 Y132.59 E.03594
;WIDTH:0.466539
G1 X156.268 Y132.224 E.02879
G1 X156.95 Y131.789 E.04069
;WIDTH:0.461994
G1 X157.367 Y131.565 E.02354
G1 X158.329 Y131.227 E.05067
;WIDTH:0.449124
G1 X158.652 Y131.153 E.01595
;WIDTH:0.446749
G1 X159.736 Y131.021 E.05218
;WIDTH:0.44836
G1 X160.067 Y131.017 E.01587
;WIDTH:0.453985
G1 X161.173 Y131.142 E.05424
G1 X161.514 Y131.244 E.01731
;WIDTH:0.461341
G1 X162.455 Y131.567 E.04935
G1 X162.868 Y131.789 E.02326
;WIDTH:0.466537
G1 X163.569 Y132.238 E.04186
G1 X164.046 Y132.647 E.03161
;WIDTH:0.46881
G1 X164.502 Y133.116 E.0331
G1 X164.933 Y133.676 E.03573
;WIDTH:0.468473
G1 X165.231 Y134.17 E.02915
G1 X165.531 Y134.786 E.03464
;WIDTH:0.465528
G1 X165.724 Y135.352 E.03002
G1 X165.907 Y136.146 E.04084
;WIDTH:0.459973
G1 X165.959 Y136.613 E.02323
G1 X165.957 Y137.587 E.04817
;WIDTH:0.458256
G1 X165.91 Y137.959 E.01847
;WIDTH:0.45888
G1 X165.68 Y138.935 E.04946
G1 X165.497 Y139.367 E.02312
;WIDTH:0.458354
G1 X165.074 Y140.246 E.04804
G1 X164.783 Y140.642 E.0242
;WIDTH:0.463964
G1 X164.198 Y141.355 E.04612
G1 X163.777 Y141.715 E.02766
;WIDTH:0.465271
G1 X163.195 Y142.165 E.03686
G1 X162.582 Y142.493 E.03485
;WIDTH:0.468875
G1 X162.012 Y142.762 E.03189
;WIDTH:0.484552
G1 X161.308 Y143.045 E.03986
;WIDTH:0.5
G1 X160.885 Y143.695 E.04228
G1 X160.863 Y143.908 E.01169
G1 X160.863 Y159.962 E.87516
G1 X158.954 Y159.962 E.10409
G1 X158.954 Y143.728 E.88502
G1 X158.858 Y143.58 E.00959
G1 X158.475 Y143.725 F21000
G1 F3000
G1 X158.258 Y143.387 E.0219
G1 X157.731 Y143.179 E.03089
G1 X156.557 Y142.618 E.07093
G1 X155.348 Y141.674 E.08364
G1 X154.442 Y140.55 E.07869
G1 X153.83 Y139.313 E.07525
G1 X153.519 Y138.077 E.06949
G1 X153.451 Y137.62 E.02515
G1 X153.447 Y136.614 E.05485
G1 X153.503 Y136.087 E.02889
G1 X153.697 Y135.226 E.04812
G1 X153.915 Y134.61 E.03565
G1 X154.227 Y133.957 E.03941
G1 X154.662 Y133.27 E.04436
G1 X155.012 Y132.829 E.0307
G1 X155.542 Y132.303 E.04072
G1 X156.018 Y131.891 E.03428
G1 X156.736 Y131.445 E.04608
G1 X157.199 Y131.187 E.0289
G1 X158.387 Y130.778 E.06851
G1 X159.913 Y130.591 E.08377
G1 X161.281 Y130.744 E.07508
G1 X162.584 Y131.176 E.07485
G1 X162.837 Y131.293 E.01519
G1 X163.769 Y131.872 E.05978
G1 X164.114 Y132.143 E.02395
G1 X164.805 Y132.829 E.05306
G1 X165.155 Y133.27 E.0307
G1 X165.591 Y133.957 E.04436
G1 X165.903 Y134.61 E.03941
G1 X166.12 Y135.226 E.03565
G1 X166.314 Y136.087 E.04812
G1 X166.37 Y136.614 E.02888
G1 X166.367 Y137.588 E.0531
G1 X166.33 Y137.953 E.01997
G1 X166.066 Y139.09 E.06363
G1 X165.417 Y140.483 E.08379
G1 X164.511 Y141.633 E.07981
G1 X163.441 Y142.505 E.07522
G1 X162.146 Y143.156 E.07904
G1 X161.559 Y143.387 E.03438
G1 X161.308 Y143.78 E.02546
G1 X161.295 Y143.908 E.00702
G1 X161.295 Y160.393 E.89867
G1 X158.523 Y160.393 E.15112
G1 X158.523 Y143.8 E.90457
G1 X158.496 Y143.759 E.00268
G1 X158.091 Y143.909 F21000
;TYPE:Outer wall
G1 F3000
G1 X158.003 Y143.734 E.01064
G1 X157.57 Y143.58 E.02508
G1 X156.329 Y142.987 E.07498
G1 X155.043 Y141.983 E.08891
G1 X154.077 Y140.784 E.08398
M73 P2 R15
G1 X153.423 Y139.463 E.08035
G1 X153.101 Y138.182 E.07201
G1 X153.019 Y137.645 E.02959
G1 X153.015 Y136.554 E.05947
G1 X153.077 Y136.015 E.02958
G1 X153.282 Y135.107 E.05077
G1 X153.516 Y134.444 E.0383
G1 X153.849 Y133.748 E.04206
G1 X154.31 Y133.02 E.04701
G1 X154.69 Y132.541 E.03335
G1 X155.377 Y131.86 E.0527
G1 X155.769 Y131.539 E.02763
G1 X156.558 Y131.047 E.05069
G1 X157.034 Y130.787 E.02959
G1 X158.29 Y130.355 E.07238
G1 X159.91 Y130.157 E.089
G1 X161.266 Y130.308 E.07437
G1 X161.777 Y130.454 E.02894
G1 X162.845 Y130.817 E.06151
G1 X163.31 Y131.079 E.02906
G1 X164.097 Y131.577 E.05081
G1 X164.635 Y132.053 E.03916
G1 X165.165 Y132.589 E.04111
G1 X165.694 Y133.314 E.04887
G1 X165.995 Y133.804 E.03139
G1 X166.383 Y134.675 E.05199
G1 X166.549 Y135.167 E.02828
G1 X166.75 Y136.099 E.05197
G1 X166.802 Y136.616 E.02831
G1 X166.798 Y137.59 E.0531
G1 X166.756 Y138.025 E.02387
G1 X166.476 Y139.231 E.06747
G1 X165.787 Y140.71 E.08897
G1 X164.82 Y141.937 E.08514
G1 X163.678 Y142.868 E.08034
G1 X162.285 Y143.564 E.0849
G1 X161.814 Y143.735 E.02729
G1 X161.726 Y143.908 E.01062
G1 X161.726 Y160.825 E.92218
G1 X158.091 Y160.825 E.19815
G1 X158.091 Y143.949 E.92
G1 E-.56 F1800
;WIPE_START
G1 F3000
G1 X158.003 Y143.734 E-.05556
G1 X157.57 Y143.58 E-.11043
G1 X157.292 Y143.447 E-.07401
;WIPE_END
G1 Z.72 F21000
G1 X165.55 Y137.735 Z.72
G1 Z.32
G1 E.8 F1800
;TYPE:Inner wall
;WIDTH:0.458256
G1 F3000
G1 X165.533 Y137.886 E.00744
;WIDTH:0.45888
G1 X165.3 Y138.844 E.04865
G1 X165.168 Y139.204 E.01891
;WIDTH:0.458354
G1 X164.725 Y140.073 E.04804
G1 X164.502 Y140.406 E.01972
;WIDTH:0.463964
G1 X163.926 Y141.07 E.04396
G1 X163.555 Y141.42 E.02545
;WIDTH:0.465271
G1 X162.993 Y141.825 E.03474
G1 X162.536 Y142.11 E.027
;WIDTH:0.468875
G1 X161.876 Y142.386 E.03614
G1 X161.393 Y142.565 E.02606
;WIDTH:0.484552
G1 X161.147 Y142.637 E.01351
;WIDTH:0.5
G1 X160.039 Y142.78 E.06091
G1 X159.779 Y142.78 E.01417
G1 X158.671 Y142.637 E.06091
;WIDTH:0.484508
G1 X158.032 Y142.42 E.03543
;WIDTH:0.468463
G1 X157.383 Y142.158 E.03536
;WIDTH:0.460763
G1 X156.99 Y141.937 E.02236
G1 X156.242 Y141.404 E.04554
;WIDTH:0.460239
G1 X155.924 Y141.109 E.02144
G1 X155.294 Y140.375 E.04788
;WIDTH:0.456199
G1 X155.125 Y140.133 E.01447
G1 X154.645 Y139.206 E.05111
;WIDTH:0.448481
G1 X154.553 Y138.97 E.01217
;WIDTH:0.450872
G1 X154.285 Y137.885 E.05398
;WIDTH:0.456023
G1 X154.252 Y137.627 E.01273
;WIDTH:0.462747
G1 X154.254 Y136.613 E.05052
G1 X154.289 Y136.235 E.01891
;WIDTH:0.465529
G1 X154.479 Y135.444 E.04084
G1 X154.64 Y134.94 E.02649
;WIDTH:0.468475
G1 X155.205 Y133.879 E.06076
;WIDTH:0.468812
G1 X155.622 Y133.373 E.03314
G1 X156.048 Y132.908 E.0319
;WIDTH:0.466539
G1 X156.486 Y132.557 E.02824
G1 X157.157 Y132.105 E.04069
;WIDTH:0.461994
G1 X157.5 Y131.935 E.01901
G1 X158.572 Y131.543 E.05675
;WIDTH:0.446749
G1 X159.782 Y131.396 E.05823
;WIDTH:0.448391
G1 X160.036 Y131.395 E.01217
;WIDTH:0.453985
G1 X161.129 Y131.525 E.05362
;WIDTH:0.461341
G1 X162.323 Y131.937 E.06269
G1 X162.66 Y132.105 E.01869
;WIDTH:0.466537
G1 X163.331 Y132.557 E.04068
G1 X163.77 Y132.908 E.02824
;WIDTH:0.46881
G1 X164.196 Y133.373 E.0319
G1 X164.612 Y133.879 E.03314
;WIDTH:0.468473
G1 X165.173 Y134.931 E.06023
;WIDTH:0.465528
G1 X165.338 Y135.444 E.02701
G1 X165.529 Y136.235 E.04084
;WIDTH:0.459973
G1 X165.568 Y136.612 E.01874
G1 X165.567 Y137.586 E.04817
;WIDTH:0.458256
G1 X165.555 Y137.696 E.00544
G1 X165.148 Y137.681 F21000
;WIDTH:0.5
G1 F3000
G1 X165.138 Y137.788 E.00584
G1 X164.87 Y138.873 E.06091
G1 X164.362 Y139.882 E.06162
G1 X164.205 Y140.139 E.01641
G1 X163.443 Y140.99 E.06228
G1 X162.758 Y141.485 E.04604
G1 X162.292 Y141.783 E.03017
G1 X161.174 Y142.207 E.06519
G1 X159.909 Y142.361 E.06947
G1 X158.722 Y142.217 E.06519
G1 X157.525 Y141.783 E.06936
G1 X156.468 Y141.076 E.06936
G1 X155.547 Y140.057 E.07486
G1 X154.966 Y138.949 E.06821
G1 X154.66 Y137.71 E.06958
G1 X154.667 Y136.487 E.06666
G1 X154.881 Y135.543 E.0528
G1 X155.007 Y135.121 E.02397
G1 X155.522 Y134.141 E.06034
G1 X156.351 Y133.177 E.06936
G1 X157.449 Y132.394 E.0735
G1 X158.671 Y131.939 E.0711
G1 X159.909 Y131.788 E.06796
G1 X161.08 Y131.931 E.06431
G1 X162.177 Y132.322 E.06352
G1 X162.43 Y132.438 E.01517
G1 X163.35 Y133.073 E.06091
G1 X163.885 Y133.649 E.04284
G1 X164.27 Y134.096 E.03217
G1 X164.815 Y135.131 E.06376
G1 X165.131 Y136.333 E.06778
G1 X165.156 Y137.586 E.06831
G1 X165.151 Y137.642 E.00305
G1 X164.712 Y137.645 F21000
;TYPE:Outer wall
G1 F3000
G1 X164.483 Y138.643 E.0558
G1 X164.433 Y138.818 E.00995
G1 X163.914 Y139.808 E.06091
G1 X163.083 Y140.736 E.06791
G1 X162.185 Y141.356 E.05949
G1 X161.07 Y141.785 E.06515
G1 X159.909 Y141.926 E.06376
G1 X158.774 Y141.789 E.06234
G1 X157.678 Y141.38 E.06372
G1 X156.713 Y140.721 E.06373
G1 X155.904 Y139.808 E.06652
G1 X155.372 Y138.795 E.06234
G1 X155.092 Y137.659 E.0638
G1 X155.098 Y136.49 E.06374
G1 X155.3 Y135.646 E.04729
G1 X155.389 Y135.322 E.01832
G1 X155.904 Y134.342 E.06034
G1 X156.674 Y133.463 E.06372
G1 X157.654 Y132.778 E.06516
G1 X158.774 Y132.361 E.06517
G1 X159.909 Y132.223 E.06231
G1 X161.028 Y132.359 E.06145
G1 X162.185 Y132.793 E.06739
G1 X163.105 Y133.428 E.06091
G1 X163.905 Y134.327 E.0656
G1 X164.428 Y135.322 E.06129
G1 X164.712 Y136.436 E.0627
G1 X164.725 Y137.586 E.06268
G1 X164.721 Y137.606 E.00113
G1 E-.56 F1800
;WIPE_START
G1 F3000
G1 X164.497 Y138.581 E-.24
;WIPE_END
G1 Z.72 F21000
G1 X161.051 Y143.238 Z.72
G1 Z.32
G1 E.8 F1800
;TYPE:Bottom surface
;WIDTH:0.500016
G1 F5216.266
G1 X160.811 Y142.998 E.01849
G1 X160.269 Y143.066 E.02976
G1 X160.668 Y143.465 E.03073
G1 X160.57 Y143.613 E.00968
G1 X160.544 Y143.951 E.01847
G1 X159.675 Y143.082 E.06696
G1 X158.977 Y142.994 E.03836
G1 X160.544 Y144.561 E.12078
G1 X160.544 Y145.171 E.03325
G1 X159.277 Y143.905 E.09761
G1 X159.277 Y144.515 E.03326
G1 X160.543 Y145.781 E.0976
G1 X160.543 Y146.39 E.03325
G1 X159.277 Y145.125 E.09759
G1 X159.277 Y145.735 E.03326
G1 X160.543 Y147 E.09758
