; HEADER_BLOCK_START
; generated by OrcaSlicer 2.3.0 on 2025-08-25 at 08:27:43
; total layer number: 52
;_GP_TOTAL_LAYER_NUMBER_PLACEHOLDER
; filament_density: 1.03
; filament_diameter: 1.75
; max_z_height: 10.52
; HEADER_BLOCK_END

; THUMBNAIL_BLOCK_START

;
; THUMBNAIL_BLOCK_END

; THUMBNAIL_BLOCK_START

;
; THUMBNAIL_BLOCK_END

; external perimeters extrusion width = 0.40mm
; perimeters extrusion width = 0.40mm
; infill extrusion width = 0.45mm
; solid infill extrusion width = 0.40mm
; top infill extrusion width = 0.40mm
; support material extrusion width = 0.40mm
; first layer extrusion width = 0.50mm

; external perimeters extrusion width = 0.40mm
; perimeters extrusion width = 0.40mm
; infill extrusion width = 0.45mm
; solid infill extrusion width = 0.40mm
; top infill extrusion width = 0.40mm
; support material extrusion width = 0.40mm
; first layer extrusion width = 0.50mm

; EXECUTABLE_BLOCK_START
EXCLUDE_OBJECT_DEFINE NAME=antenna_base_mount-eye-Body.stl_id_0_copy_0 CENTER=162.859,88.5132 POLYGON=[[154.882,79.9165],[154.992,79.289],[155.19,78.2379],[155.496,77.4828],[155.847,76.6629],[156.409,75.8447],[156.823,75.263],[157.68,74.4656],[158.074,74.1022],[159.543,73.233],[161.162,72.6952],[162.859,72.5132],[164.556,72.6952],[166.176,73.233],[167.645,74.1022],[168.039,74.4656],[168.896,75.263],[169.31,75.8447],[169.872,76.6629],[170.222,77.4828],[170.529,78.2379],[170.727,79.289],[170.837,79.9165],[170.782,81.6222],[166.809,104.513],[158.909,104.513],[154.937,81.6222],[154.882,79.9165]]
EXCLUDE_OBJECT_DEFINE NAME=antenna-support-Body.stl_id_1_copy_0 CENTER=135.714,91.7607 POLYGON=[[123.014,84.4283],[135.714,77.096],[148.414,84.4283],[148.414,99.093],[135.714,106.425],[123.014,99.093],[123.014,84.4283]]
M73 P0 R18
M106 S0
M106 P2 S0
;TYPE:Custom
; Start macro: Heat bed and nozzle simultaneously
M104 S150                                           ; Preheat nozzle to 150°C (non-blocking)
M140 S100        ; Set bed target temperature (non-blocking)
M190 S100        ; Wait for bed to reach target temperature
M109 S150                                           ; Wait for nozzle to reach 150°C
PRINT_START EXTRUDER=260 BED=100
M106 P3 S255
G90
G21
M83 ; use relative distances for extrusion
; Filament gcode
M106 S0
M106 P2 S0
;LAYER_CHANGE
;Z:0.32
;HEIGHT:0.32
;BEFORE_LAYER_CHANGE
;0.32
G92 E0

G1 E-.8 F1800
;AFTER_LAYER_CHANGE
;0.32
;_SET_FAN_SPEED_CHANGING_LAYER
SET_VELOCITY_LIMIT ACCEL=500 ACCEL_TO_DECEL=250
SET_VELOCITY_LIMIT SQUARE_CORNER_VELOCITY=9
G1 Z.72 F21000
G1 X126.203 Y74.782
G1 Z.72
G1 Z.32
G1 E.8 F1800
;TYPE:Skirt
;WIDTH:0.5
G1 F3000
G1 X133.49 Y70.574 E.45875
G1 X134.815 Y70.131 E.07618
G1 X160.848 Y66.92 E1.4299
G1 X162.372 Y66.755 E.08361
G1 X163.264 Y66.749 E.04858
G1 X166.462 Y67.083 E.17533
G1 X167.747 Y67.485 E.07341
G1 X170.751 Y69.22 E.18909
G1 X171.893 Y70.101 E.07861
G1 X173.365 Y71.59 E.11416
G1 X174.088 Y72.517 E.06408
G1 X174.908 Y73.814 E.08367
G1 X175.583 Y75.208 E.08444
G1 X176.013 Y76.397 E.06894
G1 X176.473 Y78.349 E.10932
G1 X176.623 Y79.873 E.08346
G1 X176.613 Y81.425 E.08459
G1 X176.489 Y82.576 E.06313
G1 X171.585 Y107.418 E1.38041
G1 X170.624 Y109.22 E.11132
G1 X169.599 Y110.245 E.07902
G1 X167.36 Y111.264 E.13412
G1 X136.426 Y113.409 E1.69041
G1 X135.245 Y113.417 E.06436
G1 X133.49 Y112.947 E.09904
G1 X118.478 Y104.28 E.94499
G1 X117.193 Y102.995 E.09904
G1 X116.725 Y102.183 E.05113
G1 X116.254 Y100.428 E.09904
G1 X116.254 Y83.093 E.94499
G1 X116.725 Y81.339 E.09904
G1 X117.193 Y80.526 E.05113
G1 X118.478 Y79.242 E.09904
G1 X126.168 Y74.802 E.48406
G1 X126.384 Y75.176 F21000
G1 F3000
G1 X133.706 Y70.948 E.46093
G1 X134.868 Y70.559 E.06682
G1 X160.9 Y67.348 E1.42986
G1 X162.419 Y67.183 E.0833
G1 X163.222 Y67.179 E.0438
G1 X166.415 Y67.512 E.17498
G1 X167.542 Y67.865 E.06439
G1 X170.523 Y69.586 E.18767
G1 X171.606 Y70.423 E.07458
G1 X173.027 Y71.859 E.11013
G1 X173.736 Y72.767 E.06282
G1 X174.58 Y74.114 E.08665
G1 X175.184 Y75.374 E.07617
G1 X175.606 Y76.541 E.06768
G1 X176.071 Y78.584 E.11422
G1 X176.192 Y79.871 E.07048
G1 X176.182 Y81.4 E.08334
G1 X176.064 Y82.503 E.06049
G1 X171.162 Y107.335 E1.37981
G1 X170.319 Y108.915 E.09764
G1 X169.294 Y109.94 E.07902
G1 X167.33 Y110.834 E.11763
G1 X136.396 Y112.978 E1.69041
G1 X135.245 Y112.986 E.06273
G1 X133.706 Y112.573 E.08687
G1 X118.694 Y103.906 E.94499
G1 X117.567 Y102.779 E.08687
G1 X117.098 Y101.967 E.05113
G1 X116.686 Y100.428 E.08687
G1 X116.686 Y83.093 E.94499
G1 X117.098 Y81.554 E.08687
G1 X117.567 Y80.742 E.05113
G1 X118.694 Y79.615 E.08687
G1 X126.349 Y75.196 E.48188
G1 X126.565 Y75.569 F21000
G1 F3000
G1 X133.922 Y71.322 E.46311
G1 X134.921 Y70.987 E.05746
G1 X160.952 Y67.776 E1.42983
G1 X163.181 Y67.608 E.12187
G1 X166.367 Y67.94 E.17463
G1 X167.336 Y68.244 E.05537
G1 X170.295 Y69.952 E.18626
G1 X171.319 Y70.745 E.07056
G1 X172.689 Y72.127 E.10611
G1 X173.385 Y73.017 E.06157
G1 X174.203 Y74.322 E.08401
G1 X174.786 Y75.539 E.07353
G1 X175.2 Y76.685 E.06642
G1 X175.643 Y78.633 E.10895
G1 X175.756 Y79.714 E.05922
G1 X175.756 Y81.234 E.08289
G1 X175.621 Y82.532 E.07115
G1 X170.739 Y107.251 E1.37357
G1 X170.014 Y108.61 E.08396
G1 X168.989 Y109.635 E.07902
G1 X167.3 Y110.404 E.10115
G1 X136.366 Y112.548 E1.69041
G1 X135.245 Y112.554 E.0611
M73 P1 R18
G1 X133.922 Y112.2 E.0747
G1 X118.909 Y103.532 E.94499
G1 X117.941 Y102.564 E.07469
G1 X117.472 Y101.751 E.05113
G1 X117.117 Y100.428 E.0747
G1 X117.117 Y83.093 E.94499
G1 X117.472 Y81.77 E.0747
G1 X117.941 Y80.958 E.05113
G1 X118.909 Y79.989 E.07469
G1 X126.53 Y75.589 E.4797
G1 X126.746 Y75.963 F21000
G1 F3000
G1 X134.137 Y71.695 E.46529
G1 X134.974 Y71.415 E.04809
G1 X161.004 Y68.205 E1.42979
G1 X163.14 Y68.037 E.11679
G1 X166.32 Y68.369 E.17428
G1 X167.131 Y68.623 E.04634
G1 X170.067 Y70.319 E.18484
G1 X171.032 Y71.067 E.06653
G1 X172.351 Y72.395 E.10208
G1 X173.033 Y73.266 E.06031
G1 X173.826 Y74.531 E.08136
G1 X174.387 Y75.704 E.07089
G1 X174.793 Y76.828 E.06517
G1 X175.214 Y78.683 E.10367
G1 X175.326 Y79.738 E.05783
G1 X175.324 Y81.233 E.0815
G1 X175.196 Y82.46 E.06726
G1 X170.316 Y107.168 E1.37297
G1 X169.709 Y108.305 E.07028
G1 X168.684 Y109.33 E.07902
G1 X167.27 Y109.974 E.08467
G1 X136.336 Y112.118 E1.69041
G1 X135.245 Y112.123 E.05948
G1 X134.137 Y111.826 E.06252
G1 X119.125 Y103.159 E.94499
G1 X118.314 Y102.348 E.06252
G1 X117.845 Y101.536 E.05113
G1 X117.548 Y100.428 E.06252
G1 X117.548 Y83.093 E.94499
G1 X117.845 Y81.986 E.06252
G1 X118.314 Y81.173 E.05113
G1 X119.125 Y80.362 E.06252
G1 X126.711 Y75.983 E.47752
; printing object antenna_base_mount-eye-Body.stl id:0 copy 0
G1 E-.56 F1800
;WIPE_START
G1 F3000
G1 X127.577 Y75.483 E-.24
;WIPE_END
EXCLUDE_OBJECT_START NAME=antenna_base_mount-eye-Body.stl_id_0_copy_0
G1 Z.72 F21000
G1 X164.293 Y70.374 Z.72
G1 Z.32
G1 E.8 F1800
;TYPE:Support
G1 F3000
G1 X166.076 Y70.571 E.09779
G1 X166.595 Y70.965 E.03555
G1 X166.643 Y70.973 E.00265
G1 X166.88 Y71.048 E.01353
G1 X167.581 Y71.387 E.04244
G1 X167.663 Y71.432 E.0051
G1 X168.897 Y72.2 E.07922
G1 X168.981 Y72.259 E.00563
G1 X169.557 Y72.72 E.04022
G1 X169.627 Y72.783 E.0051
G1 X170.547 Y73.696 E.07069
G1 X170.616 Y73.773 E.00563
G1 X171.173 Y74.474 E.04877
G1 X171.227 Y74.55 E.0051
G1 X171.837 Y75.513 E.06216
G1 X171.887 Y75.604 E.00563
G1 X172.34 Y76.552 E.05731
G1 X172.376 Y76.638 E.0051
G1 X172.704 Y77.566 E.05362
G1 X172.732 Y77.665 E.00563
G1 X172.998 Y78.844 E.06585
G1 X173.013 Y78.936 E.0051
G1 X173.108 Y79.757 E.04508
G1 X173.113 Y79.861 E.00563
G1 X173.109 Y81.225 E.07438
G1 X173.103 Y81.318 E.0051
G1 X173.029 Y81.984 E.03653
G1 X173.012 Y82.086 E.00563
G1 X172.641 Y83.684 E.08944
G1 X172.581 Y83.856 E.0099
G1 X171.663 Y85.829 E.11865
G1 X171.556 Y86.001 E.01104
G1 X170.242 Y87.67 E.11581
G1 X170.107 Y87.808 E.01051
G1 X168.145 Y89.406 E.13793
G1 X168.142 Y106.738 E.94486
G1 X167.117 Y107.763 E.07902
G1 X158.602 Y107.763 E.46421
G1 X157.577 Y106.738 E.07903
M73 P1 R17
G1 X157.577 Y89.335 E.94871
G1 X157.424 Y89.241 E.00981
G1 X155.7 Y87.895 E.11919
G1 X155.557 Y87.754 E.01097
G1 X154.239 Y86.119 E.11446
G1 X154.136 Y85.958 E.01044
G1 X152.879 Y83.418 E.15451
G1 X152.857 Y82.628 E.04308
G1 X152.778 Y82.444 E.01089
G1 X152.712 Y82.194 E.01408
G1 X152.615 Y81.318 E.04806
G1 X152.61 Y81.225 E.0051
G1 X152.605 Y79.861 E.07438
G1 X152.611 Y79.757 E.00563
G1 X152.705 Y78.936 E.04508
G1 X152.721 Y78.844 E.0051
G1 X152.986 Y77.665 E.06585
G1 X153.015 Y77.566 E.00563
G1 X153.342 Y76.638 E.05362
G1 X153.378 Y76.552 E.0051
G1 X153.832 Y75.604 E.05731
G1 X153.882 Y75.513 E.00563
G1 X154.492 Y74.55 E.06216
G1 X154.546 Y74.474 E.0051
G1 X155.102 Y73.773 E.04877
G1 X155.171 Y73.696 E.00563
G1 X156.092 Y72.783 E.07069
G1 X156.162 Y72.72 E.0051
G1 X156.738 Y72.259 E.04022
G1 X156.822 Y72.2 E.00563
G1 X158.056 Y71.432 E.07922
G1 X158.138 Y71.387 E.0051
G1 X158.661 Y71.134 E.03167
G1 X158.757 Y71.095 E.00563
G1 X160.395 Y70.53 E.09448
G1 X160.575 Y70.489 E.01005
G1 X161.272 Y70.404 E.0383
G1 X162.75 Y70.244 E.08105
G1 X162.928 Y70.243 E.00971
G1 X164.228 Y70.367 E.07119
G1 E-.56 F1800
;WIPE_START
G1 F3000
G1 X163.233 Y70.272 E-.24
;WIPE_END
G1 Z.72 F21000
G1 X162.542 Y79.226 Z.72
G1 Z.32
G1 E.8 F1800
G1 F3000
G1 X162.859 Y79.187 E.01743
G1 X163.177 Y79.226 E.01743
G1 X163.476 Y79.339 E.01743
G1 X163.739 Y79.521 E.01743
G1 X163.951 Y79.76 E.01743
G1 X164.099 Y80.043 E.01743
G1 X164.176 Y80.353 E.01743
G1 X164.176 Y80.673 E.01743
G1 X164.099 Y80.983 E.01743
G1 X163.951 Y81.267 E.01743
G1 X163.739 Y81.506 E.01743
G1 X163.476 Y81.687 E.01743
G1 X163.177 Y81.801 E.01743
G1 X162.859 Y81.839 E.01743
G1 X162.542 Y81.801 E.01743
G1 X162.243 Y81.687 E.01743
G1 X161.98 Y81.506 E.01743
G1 X161.768 Y81.267 E.01743
G1 X161.619 Y80.983 E.01743
G1 X161.543 Y80.673 E.01743
G1 X161.543 Y80.353 E.01743
G1 X161.619 Y80.043 E.01743
G1 X161.768 Y79.76 E.01743
G1 X161.98 Y79.521 E.01743
G1 X162.243 Y79.339 E.01743
G1 X162.481 Y79.249 E.0139
G1 E-.56 F1800
;WIPE_START
G1 F3000
G1 X162.243 Y79.339 E-.0612
G1 X161.98 Y79.521 E-.07672
G1 X161.768 Y79.76 E-.07673
G1 X161.719 Y79.853 E-.02534
;WIPE_END
G1 Z.72 F21000
G1 X160.502 Y70.904 Z.72
G1 Z.32
G1 E.8 F1800
G1 F3000
G1 X160.642 Y70.872 E.00782
G1 X161.316 Y70.79 E.03704
M73 P2 R17
G1 X161.398 Y70.781 E.00445
G1 X164.443 Y70.781 E.16601
G1 X165.926 Y70.945 E.08138
G1 X166.342 Y71.26 E.02842
G1 X159.469 Y71.26 E.3747
G1 X159.079 Y71.394 E.02246
G1 E-.56 F1800
;WIPE_START
G1 F3000
G1 X159.469 Y71.26 E-.09888
G1 X160.057 Y71.26 E-.14112
;WIPE_END
G1 Z.72 F21000
G1 X167.127 Y107.204 Z.72
G1 Z.32
G1 E.8 F1800
G1 F3000
G1 X158.592 Y107.204 E.46532
G1 X158.112 Y106.725 E.03695
G1 X167.606 Y106.725 E.51757
G1 X167.754 Y106.577 E.01137
G1 X167.754 Y106.246 E.01809
G1 X157.965 Y106.246 E.53365
G1 X157.965 Y105.766 E.02613
G1 X167.754 Y105.766 E.53365
G1 X167.754 Y105.287 E.02613
G1 X157.965 Y105.287 E.53366
G1 X157.965 Y104.808 E.02613
G1 X167.754 Y104.808 E.53367
G1 X167.754 Y104.328 E.02613
G1 X157.965 Y104.328 E.53367
G1 X157.965 Y103.849 E.02613
G1 X167.754 Y103.849 E.53368
G1 X167.754 Y103.37 E.02613
G1 X157.965 Y103.37 E.53368
G1 X157.965 Y102.891 E.02613
G1 X167.755 Y102.891 E.53369
G1 X167.755 Y102.411 E.02613
G1 X157.965 Y102.411 E.53369
G1 X157.965 Y101.932 E.02613
G1 X167.755 Y101.932 E.5337
G1 X167.755 Y101.453 E.02613
G1 X157.965 Y101.453 E.5337
G1 X157.965 Y100.974 E.02613
G1 X167.755 Y100.974 E.53371
G1 X167.755 Y100.494 E.02613
G1 X157.965 Y100.494 E.53371
G1 X157.965 Y100.015 E.02613
G1 X167.755 Y100.015 E.53372
G1 X167.755 Y99.536 E.02613
G1 X157.965 Y99.536 E.53372
G1 X157.965 Y99.057 E.02613
G1 X167.755 Y99.057 E.53373
G1 X167.755 Y98.577 E.02613
G1 X157.965 Y98.577 E.53373
G1 X157.965 Y98.098 E.02613
G1 X167.755 Y98.098 E.53374
G1 X167.756 Y97.619 E.02613
G1 X157.965 Y97.619 E.53374
G1 X157.965 Y97.14 E.02613
G1 X167.756 Y97.14 E.53375
G1 X167.756 Y96.66 E.02613
G1 X157.965 Y96.66 E.53375
G1 X157.965 Y96.181 E.02613
G1 X167.756 Y96.181 E.53376
G1 X167.756 Y95.702 E.02613
G1 X157.965 Y95.702 E.53376
G1 X157.965 Y95.223 E.02613
G1 X167.756 Y95.223 E.53377
G1 X167.756 Y94.743 E.02613
G1 X157.965 Y94.743 E.53377
G1 X157.965 Y94.264 E.02613
G1 X167.756 Y94.264 E.53378
G1 X167.756 Y93.785 E.02613
G1 X157.965 Y93.785 E.53378
G1 X157.965 Y93.306 E.02613
G1 X167.756 Y93.306 E.53379
G1 X167.756 Y92.826 E.02613
G1 X157.965 Y92.826 E.53379
G1 X157.965 Y92.347 E.02613
G1 X167.757 Y92.347 E.5338
G1 X167.757 Y91.868 E.02613
G1 X157.965 Y91.868 E.5338
G1 X157.965 Y91.389 E.02613
M73 P3 R17
G1 X167.757 Y91.389 E.53381
G1 X167.757 Y90.909 E.02613
G1 X157.965 Y90.909 E.53381
G1 X157.965 Y90.43 E.02613
G1 X167.757 Y90.43 E.53382
G1 X167.757 Y89.951 E.02613
G1 X157.965 Y89.951 E.53382
G1 X157.965 Y89.472 E.02613
G1 X167.757 Y89.472 E.53383
G1 X167.757 Y89.222 E.01364
G1 X168.038 Y88.992 E.01977
G1 X157.76 Y88.992 E.56032
G1 X157.646 Y88.922 E.00733
G1 X157.123 Y88.513 E.03619
G1 X168.627 Y88.513 E.62714
G1 X169.215 Y88.034 E.04136
G1 X156.509 Y88.034 E.69268
G1 X155.957 Y87.603 E.03818
G1 X155.908 Y87.555 E.00375
G1 X169.803 Y87.555 E.75751
G1 X169.845 Y87.52 E.00295
G1 X169.95 Y87.414 E.00818
G1 X170.217 Y87.075 E.02346
G1 X155.508 Y87.075 E.80181
G1 X155.122 Y86.596 E.03355
G1 X170.594 Y86.596 E.84343
G1 X170.971 Y86.117 E.03325
G1 X154.736 Y86.117 E.88506
G1 X154.555 Y85.892 E.01574
G1 X154.475 Y85.767 E.00812
G1 X154.411 Y85.638 E.00784
G1 X171.323 Y85.638 E.92198
G1 X171.547 Y85.158 E.02882
G1 X154.174 Y85.158 E.94708
G1 X153.936 Y84.679 E.02915
G1 X171.77 Y84.679 E.97218
G1 X171.993 Y84.2 E.02882
G1 X153.699 Y84.2 E.99728
G1 X153.462 Y83.721 E.02915
G1 X172.216 Y83.721 E1.02238
G1 X172.221 Y83.71 E.00063
G1 X172.267 Y83.577 E.00771
G1 X172.345 Y83.241 E.01876
G1 X153.262 Y83.241 E1.04029
G1 X153.249 Y82.762 E.02614
G1 X172.456 Y82.762 E1.04708
G1 X172.568 Y82.283 E.02682
G1 X153.137 Y82.283 E1.05925
G1 X153.095 Y82.123 E.009
G1 X153.06 Y81.804 E.01753
G1 X161.728 Y81.804 E.47255
G1 X161.721 Y81.799 E.00049
G1 X161.446 Y81.489 E.02257
G1 X161.36 Y81.324 E.01011
G1 X153.007 Y81.324 E.45538
G1 X153.002 Y81.286 E.00212
G1 X152.998 Y81.213 E.00397
G1 X152.997 Y80.845 E.02006
G1 X161.185 Y80.845 E.4464
G1 X161.155 Y80.72 E.00702
G1 X161.155 Y80.366 E.01931
G1 X152.995 Y80.366 E.44481
G1 X152.993 Y79.887 E.02613
G1 X161.263 Y79.887 E.45081
G1 X161.446 Y79.538 E.02148
G1 X161.562 Y79.407 E.00949
G1 X153.042 Y79.407 E.46445
G1 X153.09 Y78.99 E.02288
G1 X153.1 Y78.928 E.00345
G1 X162.232 Y78.928 E.49778
G1 X162.448 Y78.846 E.01264
G1 X162.859 Y78.796 E.02257
G1 X163.27 Y78.846 E.02257
G1 X163.487 Y78.928 E.01264
G1 X172.618 Y78.928 E.49778
G1 X172.617 Y78.919 E.00052
G1 X172.511 Y78.449 E.02626
G1 X153.208 Y78.449 E1.0523
G1 X153.316 Y77.97 E.02678
G1 X172.403 Y77.97 E1.04054
G1 X172.356 Y77.762 E.01162
M73 P4 R17
G1 X172.334 Y77.684 E.00438
G1 X172.265 Y77.49 E.01122
G1 X153.453 Y77.49 E1.02554
G1 X153.622 Y77.011 E.02771
G1 X172.096 Y77.011 E1.00709
G1 X172.014 Y76.777 E.01351
G1 X171.986 Y76.71 E.00397
G1 X171.901 Y76.532 E.01078
G1 X153.818 Y76.532 E.98576
G1 X154.047 Y76.053 E.02896
G1 X171.671 Y76.053 E.96076
G1 X171.542 Y75.782 E.01638
G1 X171.503 Y75.711 E.00438
G1 X171.415 Y75.573 E.00889
G1 X154.303 Y75.573 E.93286
G1 X154.607 Y75.094 E.03092
G1 X171.112 Y75.094 E.89978
G1 X170.904 Y74.766 E.02116
G1 X170.862 Y74.707 E.00397
G1 X170.789 Y74.615 E.0064
G1 X154.929 Y74.615 E.86459
G1 X155.31 Y74.136 E.03336
G1 X170.409 Y74.136 E.82309
G1 X170.319 Y74.023 E.00781
G1 X170.266 Y73.963 E.00438
G1 X169.956 Y73.656 E.02377
G1 X155.762 Y73.656 E.77379
G1 X156.245 Y73.177 E.03709
G1 X169.473 Y73.177 E.72113
G1 X169.361 Y73.065 E.00864
G1 X169.307 Y73.017 E.00397
G1 X168.908 Y72.698 E.02785
G1 X156.811 Y72.698 E.65944
G1 X156.971 Y72.57 E.01118
G1 X157.037 Y72.523 E.00438
G1 X157.526 Y72.219 E.03144
G1 X168.192 Y72.219 E.58144
G1 X167.467 Y71.767 E.0466
G1 X167.416 Y71.739 E.00312
G1 X158.302 Y71.739 E.49685
G1 X158.316 Y71.732 E.00084
G1 X158.78 Y71.508 E.02807
G1 E-.56 F1800
;WIPE_START
G1 F3000
G1 X158.316 Y71.732 E-.12357
G1 X158.302 Y71.739 E-.00371
G1 X158.772 Y71.739 E-.11272
;WIPE_END
G1 Z.72 F21000
G1 X163.685 Y79.012 Z.72
G1 Z.32
G1 E.8 F1800
