; HEADER_BLOCK_START
; generated by OrcaSlicer 2.3.0 on 2025-08-25 at 17:43:28
; total layer number: 83
;_GP_TOTAL_LAYER_NUMBER_PLACEHOLDER
; filament_density: 1.03
; filament_diameter: 1.75
; max_z_height: 16.72
; HEADER_BLOCK_END

; THUMBNAIL_BLOCK_START

;
; THUMBNAIL_BLOCK_END

; THUMBNAIL_BLOCK_START

;
; THUMBNAIL_BLOCK_END

; external perimeters extrusion width = 0.40mm
; perimeters extrusion width = 0.40mm
; infill extrusion width = 0.45mm
; solid infill extrusion width = 0.40mm
; top infill extrusion width = 0.40mm
; first layer extrusion width = 0.50mm

; external perimeters extrusion width = 0.40mm
; perimeters extrusion width = 0.40mm
; infill extrusion width = 0.45mm
; solid infill extrusion width = 0.40mm
; top infill extrusion width = 0.40mm
; first layer extrusion width = 0.50mm

; EXECUTABLE_BLOCK_START
EXCLUDE_OBJECT_DEFINE NAME=Tension_Arm_with_Support.stl_id_0_copy_0 CENTER=164.689,99.9745 POLYGON=[[151.849,102.207],[167.645,82.0645],[167.69,82.0395],[171.111,80.179],[171.177,80.2037],[177.351,82.4959],[177.528,82.8816],[176.543,85.5357],[174.606,90.7528],[174.026,92.3135],[171.033,100.375],[160.373,118.086],[160.218,118.307],[160.047,118.516],[159.862,118.712],[159.662,118.894],[159.45,119.061],[159.226,119.212],[158.992,119.346],[158.749,119.463],[158.497,119.562],[158.24,119.642],[157.977,119.703],[157.71,119.745],[157.441,119.767],[157.171,119.77],[156.901,119.753],[156.634,119.716],[156.37,119.66],[156.11,119.585],[155.857,119.491],[155.612,119.379],[155.375,119.249],[155.148,119.102],[154.933,118.94],[154.73,118.762],[154.54,118.569],[154.365,118.364],[154.206,118.146],[154.063,117.917],[153.937,117.678],[153.829,117.431],[153.739,117.176],[153.668,116.916],[153.616,116.651],[151.849,107.46],[151.849,102.207]]
EXCLUDE_OBJECT_DEFINE NAME=Knob_big.stl_id_1_copy_0 CENTER=139.108,103.767 POLYGON=[[129.813,99.3261],[134.911,94.2276],[142.814,94.2274],[148.403,99.8156],[148.403,107.719],[142.815,113.307],[134.911,113.308],[129.813,108.209],[129.813,99.3261]]
M73 P0 R29
M106 S0
M106 P2 S0
;TYPE:Custom
; Start macro: Heat bed and nozzle simultaneously
M104 S150                                           ; Preheat nozzle to 150°C (non-blocking)
M140 S100        ; Set bed target temperature (non-blocking)
M190 S100        ; Wait for bed to reach target temperature
M109 S150                                           ; Wait for nozzle to reach 150°C
PRINT_START EXTRUDER=260 BED=100
M106 P3 S255
G90
G21
M83 ; use relative distances for extrusion
; Filament gcode
M106 S0
M106 P2 S0
;LAYER_CHANGE
;Z:0.32
;HEIGHT:0.32
;BEFORE_LAYER_CHANGE
;0.32
G92 E0

G1 E-.8 F1800
;AFTER_LAYER_CHANGE
;0.32
;_SET_FAN_SPEED_CHANGING_LAYER
SET_VELOCITY_LIMIT ACCEL=500 ACCEL_TO_DECEL=250
SET_VELOCITY_LIMIT SQUARE_CORNER_VELOCITY=9
G1 Z.72 F21000
G1 X134.115 Y91.021
G1 Z.72
G1 Z.32
G1 E.8 F1800
;TYPE:Skirt
;WIDTH:0.5
G1 F3000
G1 X165.504 Y82.935 E1.76702
G1 X167.601 Y83.044 E.11447
G1 X175.991 Y86.159 E.48791
G1 X177.369 Y87.091 E.09069
G1 X178.162 Y88.547 E.09035
G1 X178.233 Y88.815 E.01511
G1 X178.131 Y90.938 E.11591
G1 X174.207 Y101.509 E.61471
G1 X173.936 Y102.076 E.03425
G1 X163.385 Y119.888 E1.12857
G1 X162.41 Y121.125 E.08587
G1 X161.413 Y121.97 E.07124
G1 X160.268 Y122.627 E.07198
G1 X158.772 Y123.121 E.08587
G1 X157.205 Y123.279 E.08587
G1 X155.905 Y123.149 E.07123
G1 X133.963 Y116.471 E1.25032
G1 X132.509 Y115.597 E.09246
G1 X127.523 Y110.611 E.3844
G1 X126.659 Y109.189 E.09069
G1 X126.495 Y108.129 E.05848
G1 X126.495 Y99.406 E.47556
G1 X126.89 Y97.79 E.09069
G1 X127.523 Y96.924 E.05847
G1 X132.509 Y91.938 E.38438
G1 X134.08 Y91.041 E.09865
G1 X134.223 Y91.439 F21000
G1 F3000
G1 X165.612 Y83.353 E1.76702
G1 X167.451 Y83.448 E.10041
G1 X175.841 Y86.563 E.48791
G1 X177.116 Y87.456 E.08485
G1 X177.745 Y88.658 E.07392
G1 X177.816 Y88.926 E.01511
G1 X177.727 Y90.788 E.10166
G1 X173.565 Y101.857 E.64463
G1 X163.015 Y119.666 E1.12846
G1 X162.097 Y120.829 E.08073
G1 X161.172 Y121.612 E.0661
G1 X160.081 Y122.238 E.06855
G1 X158.674 Y122.701 E.08074
G1 X157.201 Y122.848 E.08074
G1 X155.994 Y122.727 E.06609
G1 X134.089 Y116.059 E1.24825
G1 X132.814 Y115.292 E.0811
G1 X127.828 Y110.306 E.3844
G1 X127.042 Y108.963 E.08485
G1 X126.927 Y108.129 E.04588
G1 X126.927 Y99.406 E.47556
G1 X127.32 Y97.9 E.08485
G1 X127.828 Y97.229 E.04587
G1 X132.814 Y92.243 E.38438
G1 X134.188 Y91.459 E.08626
G1 X134.33 Y91.857 F21000
G1 F3000
G1 X165.719 Y83.771 E1.76702
G1 X167.301 Y83.853 E.08634
G1 X175.691 Y86.968 E.48791
G1 X176.855 Y87.818 E.07858
G1 X177.328 Y88.769 E.05788
G1 X177.399 Y89.036 E.01511
G1 X177.323 Y90.638 E.08742
G1 X173.194 Y101.637 E.64044
G1 X162.645 Y119.445 E1.12836
G1 X161.784 Y120.532 E.0756
G1 X160.707 Y121.406 E.07561
G1 X159.466 Y122.025 E.0756
G1 X158.378 Y122.319 E.06143
G1 X157.003 Y122.412 E.07512
G1 X155.82 Y122.249 E.06512
G1 X134.216 Y115.646 E1.23152
G1 X133.119 Y114.987 E.06974
G1 X128.133 Y110.001 E.3844
G1 X127.358 Y108.129 E.11045
G1 X127.358 Y99.406 E.47556
G1 X128.133 Y97.534 E.11044
G1 X133.119 Y92.548 E.38438
G1 X134.296 Y91.876 E.07387
G1 X134.438 Y92.274 F21000
G1 F3000
G1 X165.827 Y84.188 E1.76702
G1 X167.151 Y84.257 E.07227
G1 X175.541 Y87.372 E.48791
G1 X176.583 Y88.176 E.07176
G1 X176.911 Y88.88 E.04231
G1 X176.982 Y89.147 E.01511
G1 X176.918 Y90.488 E.07317
G1 X172.823 Y101.417 E.63625
G1 X162.275 Y119.224 E1.12825
G1 X161.47 Y120.235 E.07046
G1 X160.466 Y121.048 E.07047
G1 X159.308 Y121.624 E.07046
G1 X158.313 Y121.893 E.05621
G1 X157.031 Y121.981 E.07006
G1 X155.909 Y121.827 E.06169
G1 X134.342 Y115.234 E1.22946
G1 X133.424 Y114.682 E.05837
G1 X128.438 Y109.696 E.3844
G1 X127.789 Y108.129 E.09245
G1 X127.789 Y99.406 E.47556
G1 X128.438 Y97.839 E.09244
G1 X133.424 Y92.853 E.38438
G1 X134.403 Y92.294 E.06147
; printing object Tension_Arm_with_Support.stl id:0 copy 0
G1 E-.56 F1800
;WIPE_START
G1 F3000
G1 X135.371 Y92.044 E-.24
;WIPE_END
EXCLUDE_OBJECT_START NAME=Tension_Arm_with_Support.stl_id_0_copy_0
G1 Z.72 F21000
G1 X156.196 Y107.266 Z.72
G1 Z.32
G1 E.8 F1800
;TYPE:Outer wall
;WIDTH:0.408673
G1 F3000
G1 X156.279 Y106.552 E.03089
G1 E-.56 F1800
;WIPE_START
G1 F3000
G1 X156.196 Y107.266 E-.24
;WIPE_END
G1 Z.72 F21000
G1 X156.517 Y105.035 Z.72
G1 Z.32
G1 E.8 F1800
;TYPE:Inner wall
;WIDTH:0.5
G1 F3000
G1 X156.419 Y105.019 E.00539
G1 X156.218 Y104.897 E.01282
G1 X156.073 Y104.668 E.0148
G1 X156.078 Y104.363 E.01661
G1 X156.253 Y104.093 E.01754
G1 X156.467 Y103.984 E.01311
G1 X156.728 Y103.984 E.0142
G1 X156.948 Y104.098 E.01351
G1 X157.12 Y104.379 E.01792
G1 X157.104 Y104.707 E.01794
G1 X156.914 Y104.957 E.01709
G1 X156.631 Y105.053 E.01631
G1 X156.556 Y105.041 E.00411
G1 X156.459 Y105.489 F21000
G1 F3000
G1 X156.067 Y105.328 E.02309
G1 X155.802 Y105.083 E.01969
G1 X155.635 Y104.71 E.02226
G1 X155.64 Y104.382 E.01787
G1 X155.717 Y104.114 E.01522
G1 X155.875 Y103.871 E.01579
G1 X156.168 Y103.633 E.0206
G1 X156.482 Y103.549 E.0177
G1 X156.84 Y103.564 E.01954
G1 X157.156 Y103.717 E.01915
G1 X157.433 Y104.01 E.02198
G1 X157.542 Y104.27 E.01537
G1 X157.572 Y104.551 E.01537
G1 X157.528 Y104.786 E.01305
G1 X157.416 Y105.033 E.01477
G1 X157.122 Y105.342 E.02324
G1 X156.813 Y105.453 E.0179
G1 X156.498 Y105.485 E.01725
G1 X156.384 Y105.919 F21000
G1 F3000
G1 X155.965 Y105.776 E.02413
G1 X155.698 Y105.603 E.01736
G1 X155.452 Y105.34 E.01967
G1 X155.289 Y105.052 E.01801
G1 X155.198 Y104.684 E.02069
G1 X155.24 Y104.122 E.03071
G1 X155.409 Y103.749 E.02228
G1 X155.68 Y103.437 E.02255
G1 X155.837 Y103.335 E.01018
G1 X156.121 Y103.192 E.01736
G1 X156.44 Y103.12 E.01783
G1 X156.789 Y103.122 E.01905
G1 X157.15 Y103.224 E.02043
G1 X157.543 Y103.463 E.02508
G1 X157.807 Y103.786 E.02273
G1 X157.964 Y104.162 E.02224
G1 X158.007 Y104.568 E.02224
G1 X157.879 Y105.095 E.02955
G1 X157.557 Y105.55 E.03039
G1 X157.252 Y105.76 E.02021
G1 X156.825 Y105.893 E.0244
G1 X156.424 Y105.917 E.02187
G1 X156.279 Y106.552 F21000
;TYPE:Outer wall
;WIDTH:0.454336
G1 F3000
G1 X156.277 Y106.445 E.00522
;WIDTH:0.5
G1 X156.275 Y106.338 E.00584
G1 X155.776 Y106.167 E.02878
G1 X155.419 Y105.937 E.02315
G1 X155.245 Y105.751 E.01388
G1 X154.997 Y105.413 E.02284
G1 X154.832 Y105.034 E.02255
G1 X154.748 Y104.535 E.02758
G1 X154.821 Y104.001 E.02937
G1 X155.042 Y103.514 E.02916
G1 X155.394 Y103.109 E.02923
G1 X155.78 Y102.856 E.02518
G1 X156.18 Y102.712 E.02319
G1 X156.643 Y102.666 E.02537
G1 X157.065 Y102.724 E.02319
G1 X157.496 Y102.9 E.02538
G1 X157.84 Y103.146 E.02306
G1 X158.181 Y103.561 E.02929
G1 X158.386 Y104.054 E.02911
G1 X158.443 Y104.585 E.02911
G1 X158.344 Y105.115 E.02938
G1 X158.2 Y105.431 E.01892
G1 X157.985 Y105.704 E.01898
G1 X157.709 Y105.978 E.02119
G1 X157.272 Y106.233 E.02759
G1 X156.741 Y106.355 E.02967
G1 X156.346 Y106.35 E.02156
G1 X156.312 Y106.451 E.0058
;WIDTH:0.454336
G1 X156.291 Y106.514 E.00324
G1 E-.56 F1800
;WIPE_START
G1 F3000
G1 X156.277 Y106.445 E-.01694
G1 X156.275 Y106.338 E-.02571
G1 X155.776 Y106.167 E-.12672
G1 X155.529 Y106.007 E-.07063
;WIPE_END
G1 Z.72 F21000
G1 X156.16 Y110.831 Z.72
G1 Z.32
G1 E.8 F1800
;WIDTH:0.602017
G1 F3000
G1 X156.16 Y110.317 E.03468
G1 E-.56 F1800
;WIPE_START
G1 F3000
G1 X156.16 Y110.831 E-.24
;WIPE_END
G1 Z.72 F21000
G1 X157.783 Y112.282 Z.72
G1 Z.32
G1 E.8 F1800
;TYPE:Inner wall
;WIDTH:0.5
G1 F3000
G1 X158.089 Y112.252 E.01675
G1 X158.568 Y112.005 E.02935
G1 X160.695 Y110.371 E.14623
G1 X159.421 Y116.324 E.33189
G1 X159.295 Y116.743 E.02386
G1 X159.088 Y117.219 E.02828
G1 X158.756 Y117.625 E.02858
G1 X158.43 Y117.877 E.02249
G1 X158.004 Y118.076 E.02563
G1 X157.516 Y118.209 E.02755
G1 X156.9 Y118.191 E.03361
G1 X156.478 Y118.066 E.02399
G1 X155.915 Y117.736 E.03557
M73 P1 R29
G1 X155.49 Y117.271 E.03437
G1 X155.221 Y116.712 E.03381
G1 X155.114 Y116.067 E.03562
G1 X155.072 Y112.32 E.2043
G1 X156.159 Y112.293 E.05932
G1 X156.425 Y112.318 E.01456
G1 X157.414 Y112.318 E.05389
G1 X157.743 Y112.286 E.01805
G1 X157.742 Y111.858 F21000
G1 F3000
G1 X157.963 Y111.839 E.01207
G1 X158.305 Y111.663 E.02097
G1 X161.362 Y109.314 E.21017
G1 X159.842 Y116.414 E.39583
G1 X159.663 Y117.005 E.03366
G1 X159.447 Y117.461 E.02752
G1 X159.065 Y117.928 E.03288
G1 X158.658 Y118.243 E.02807
G1 X158.205 Y118.46 E.02737
G1 X157.725 Y118.608 E.02737
G1 X157.201 Y118.655 E.02869
G1 X156.614 Y118.564 E.03239
G1 X156.129 Y118.389 E.02809
G1 X155.64 Y118.072 E.03176
G1 X155.338 Y117.763 E.02359
G1 X155.041 Y117.377 E.02656
G1 X154.807 Y116.841 E.03185
G1 X154.682 Y116.08 E.04205
G1 X154.635 Y111.89 E.22845
G1 X155.897 Y111.886 E.06876
G1 X156.159 Y111.85 E.01446
G1 X156.425 Y111.887 E.01463
G1 X157.414 Y111.887 E.05389
G1 X157.702 Y111.862 E.01579
G1 X157.736 Y111.429 F21000
G1 F3000
G1 X157.837 Y111.427 E.00548
G1 X158.042 Y111.321 E.01258
G1 X162.029 Y108.257 E.27411
G1 X160.229 Y116.668 E.46885
G1 X160.007 Y117.339 E.03854
G1 X159.806 Y117.704 E.02272
G1 X159.525 Y118.048 E.02421
G1 X159.193 Y118.386 E.02583
G1 X158.684 Y118.735 E.03367
G1 X158.306 Y118.884 E.0221
G1 X157.807 Y119.031 E.02841
G1 X157.189 Y119.087 E.03378
G1 X156.509 Y118.982 E.03752
G1 X155.928 Y118.772 E.03367
G1 X155.366 Y118.408 E.03652
G1 X155.029 Y118.065 E.0262
G1 X154.662 Y117.586 E.03295
G1 X154.393 Y116.971 E.03658
G1 X154.251 Y116.093 E.04849
G1 X154.199 Y111.459 E.2526
G1 X155.951 Y111.455 E.09551
G1 X156.16 Y111.381 E.01206
G1 X156.178 Y111.406 E.00171
G1 X156.425 Y111.455 E.01374
G1 X157.696 Y111.43 E.0693
G1 X157.648 Y111.024 F21000
;TYPE:Outer wall
G1 F3000
G1 X157.779 Y110.979 E.00757
G1 X162.652 Y107.235 E.33503
G1 X162.688 Y107.24 E.00196
G1 X160.646 Y116.781 E.53188
G1 X160.404 Y117.512 E.04198
G1 X160.165 Y117.946 E.02703
G1 X159.683 Y118.535 E.04148
G1 X159.472 Y118.715 E.01512
G1 X158.878 Y119.122 E.03925
G1 X158.17 Y119.401 E.0415
G1 X157.445 Y119.507 E.03994
G1 X156.916 Y119.493 E.02885
G1 X156.404 Y119.401 E.02834
G1 X155.727 Y119.156 E.03925
G1 X155.091 Y118.745 E.04129
G1 X154.553 Y118.195 E.04195
G1 X154.282 Y117.795 E.02634
G1 X153.978 Y117.1 E.04131
G1 X153.883 Y116.614 E.027
G1 X153.82 Y116.105 E.02795
G1 X153.765 Y111.213 E.26673
G1 X153.834 Y111.06 E.00915
G1 X153.981 Y111.029 E.00824
G1 X155.921 Y111.024 E.10573
;WIDTH:0.534005
G1 X156.001 Y110.96 E.00601
;WIDTH:0.568011
G1 X156.08 Y110.896 E.00645
;WIDTH:0.602017
G1 X156.16 Y110.831 E.00689
G1 X156.221 Y110.89 E.00571
;WIDTH:0.568011
G1 X156.282 Y110.949 E.00535
;WIDTH:0.534005
G1 X156.343 Y111.008 E.00498
;WIDTH:0.5
G1 X156.425 Y111.024 E.00458
G1 X157.608 Y111.024 E.06446
G1 E-.56 F1800
;WIPE_START
G1 F3000
G1 X157.779 Y110.979 E-.04251
G1 X158.432 Y110.478 E-.19749
;WIPE_END
G1 Z.72 F21000
G1 X160.555 Y106.125 Z.72
G1 Z.32
G1 E.8 F1800
;TYPE:Inner wall
G1 F3000
G1 X160.763 Y105.472 E.03737
G1 X160.831 Y105.124 E.01931
G1 X160.864 Y104.225 E.04906
G1 X160.784 Y103.636 E.03238
G1 X160.564 Y102.907 E.04154
G1 X160.221 Y102.252 E.04032
G1 X159.946 Y101.855 E.02629
G1 X159.464 Y101.34 E.03849
G1 X159.167 Y101.095 E.02095
G1 X158.571 Y100.719 E.03845
G1 X158.222 Y100.557 E.02095
G1 X157.409 Y100.317 E.04624
G1 X163.595 Y97.03 E.3819
G1 X163.881 Y96.763 E.02131
G1 X164.153 Y96.306 E.02898
G1 X167.139 Y88.263 E.46772
G1 X172.935 Y90.415 E.33701
G1 X169.627 Y99.325 E.51812
G1 X160.587 Y106.101 E.6159
G1 E-.56 F1800
;WIPE_START
G1 F3000
G1 X160.763 Y105.472 E-.15682
G1 X160.829 Y105.132 E-.08318
;WIPE_END
G1 Z.72 F21000
G1 X157.115 Y109.243 Z.72
G1 Z.32
G1 E.8 F1800
G1 F3000
G1 X155.397 Y109.237 E.09363
G1 X153.971 Y107.833 E.10908
;WIDTH:0.468637
G1 X153.479 Y107.35 E.03486
;WIDTH:0.485447
G1 X153.094 Y106.944 E.02946
G1 X153.094 Y106.081 E.04548
G1 X153.262 Y106.421 E.02001
G1 X153.642 Y106.952 E.0344
;WIDTH:0.463723
G1 X154.1 Y107.416 E.03252
;WIDTH:0.5
G1 X154.616 Y107.814 E.03553
G1 X155.204 Y108.102 E.03568
G1 X155.734 Y108.261 E.03015
G1 X156.287 Y108.348 E.03055
G1 X156.953 Y108.333 E.03631
G1 X157.335 Y108.287 E.02094
G1 X158.01 Y108.081 E.0385
;WIDTH:0.486214
G1 X158.229 Y107.968 E.01301
;WIDTH:0.448076
G1 X158.923 Y107.519 E.03963
;WIDTH:0.445846
G1 X159.28 Y107.186 E.02326
;WIDTH:0.481752
G1 X159.637 Y106.853 E.02548
;WIDTH:0.5
G1 X160.022 Y106.262 E.03845
G1 X160.138 Y106.014 E.01496
G1 X160.401 Y105.093 E.05221
G1 X160.437 Y104.283 E.04415
G1 X160.308 Y103.492 E.04373
G1 X160.072 Y102.861 E.03673
G1 X159.632 Y102.15 E.04556
G1 X159.149 Y101.635 E.03849
G1 X158.937 Y101.46 E.01496
G1 X158.341 Y101.084 E.03845
G1 X158.092 Y100.969 E.01496
G1 X157.17 Y100.707 E.05223
G1 X156.361 Y100.673 E.04411
G1 X155.57 Y100.804 E.04373
;WIDTH:0.498565
G1 X155.757 Y100.705 E.01149
;WIDTH:0.5
G1 X163.247 Y96.726 E.46234
G1 X163.527 Y96.512 E.01922
G1 X163.75 Y96.154 E.02298
G1 X166.885 Y87.709 E.49112
G1 X173.489 Y90.161 E.38404
G1 X169.987 Y99.594 E.54855
G1 X160.501 Y106.705 E.64631
G1 X160.098 Y107.023 E.02798
;WIDTH:0.474079
G1 X159.695 Y107.341 E.0263
;WIDTH:0.448159
G1 X158.916 Y107.948 E.04736
;WIDTH:0.448699
G1 X158.554 Y108.196 E.02109
;WIDTH:0.486214
G1 X158.192 Y108.444 E.02317
;WIDTH:0.5
G1 X157.147 Y109.219 E.07093
G1 X157.258 Y109.675 F21000
G1 F3000
G1 X156.428 Y109.672 E.04525
G1 X156.213 Y109.708 E.01184
G1 X156.162 Y109.78 E.00484
G1 X156.11 Y109.707 E.00484
G1 X155.896 Y109.67 E.01184
G1 X155.218 Y109.667 E.03698
G1 X152.67 Y107.12 E.19642
G1 X152.67 Y105.813 E.07121
;WIDTH:0.53459
G1 X152.688 Y105.498 E.01862
;WIDTH:0.569181
G1 X152.705 Y105.182 E.02
G1 X152.69 Y104.542 E.04048
;WIDTH:0.539444
G1 X152.684 Y103.737 E.04791
;WIDTH:0.526851
G1 X152.67 Y102.547 E.0689
;WIDTH:0.5
G1 X154.141 Y101.076 E.11342
G1 X163.044 Y96.345 E.54961
G1 X163.212 Y96.217 E.01153
G1 X163.346 Y96.002 E.01379
G1 X166.631 Y87.154 E.51452
G1 X174.044 Y89.906 E.43107
G1 X170.347 Y99.863 E.57898
G1 X157.29 Y109.651 E.88962
G1 X157.401 Y110.107 F21000
;TYPE:Outer wall
G1 F3000
G1 X156.395 Y110.105 E.05483
;WIDTH:0.549998
G1 X156.277 Y110.211 E.00963
;WIDTH:0.599997
G1 X156.16 Y110.317 E.01063
G1 X156.063 Y110.215 E.00942
;WIDTH:0.549998
G1 X155.966 Y110.114 E.00854
;WIDTH:0.5
G1 X155.039 Y110.098 E.05057
G1 X152.239 Y107.298 E.21585
G1 X152.239 Y102.369 E.26874
G1 X153.882 Y100.726 E.12668
G1 X162.842 Y95.964 E.55312
G1 X162.942 Y95.85 E.0083
