; HEADER_BLOCK_START
; generated by OrcaSlicer 2.3.0 on 2025-08-22 at 18:20:25
; total layer number: 149
;_GP_TOTAL_LAYER_NUMBER_PLACEHOLDER
; filament_density: 1.03
; filament_diameter: 1.75
; max_z_height: 29.92
; HEADER_BLOCK_END

; THUMBNAIL_BLOCK_START

;
; THUMBNAIL_BLOCK_END

; THUMBNAIL_BLOCK_START

;
; THUMBNAIL_BLOCK_END

; external perimeters extrusion width = 0.40mm
; perimeters extrusion width = 0.40mm
; infill extrusion width = 0.45mm
; solid infill extrusion width = 0.40mm
; top infill extrusion width = 0.40mm
; first layer extrusion width = 0.50mm

; EXECUTABLE_BLOCK_START
EXCLUDE_OBJECT_DEFINE NAME=Voron_Design_Cube_v8_1_.STL_id_0_copy_0 CENTER=150,150 POLYGON=[[135,135],[165,135],[165,165],[135,165],[135,135]]
M73 P0 R33
M106 S0
M106 P2 S0
;TYPE:Custom
; Start macro: Heat bed and nozzle simultaneously
M104 S150                                           ; Preheat nozzle to 150°C (non-blocking)
M140 S100        ; Set bed target temperature (non-blocking)
M190 S100        ; Wait for bed to reach target temperature
M109 S150                                           ; Wait for nozzle to reach 150°C
PRINT_START EXTRUDER=260 BED=100
M106 P3 S255
G90
G21
M83 ; use relative distances for extrusion
; Filament gcode
M106 S0
M106 P2 S0
;LAYER_CHANGE
;Z:0.32
;HEIGHT:0.32
;BEFORE_LAYER_CHANGE
;0.32
G92 E0

G1 E-.8 F1800
;AFTER_LAYER_CHANGE
;0.32
;_SET_FAN_SPEED_CHANGING_LAYER
SET_VELOCITY_LIMIT ACCEL=500 ACCEL_TO_DECEL=250
SET_VELOCITY_LIMIT SQUARE_CORNER_VELOCITY=9
G1 Z.72 F21000
G1 X135.438 Y135.438
G1 Z.72
G1 Z.32
G1 E.8 F1800
;TYPE:Skirt
;WIDTH:0.5
G1 F3000
G1 X138.358 Y132.518 E.22512
G1 X139.78 Y131.654 E.09069
G1 X140.84 Y131.49 E.05847
G1 X159.16 Y131.49 E.99871
G1 X160.776 Y131.885 E.09069
G1 X161.642 Y132.518 E.05847
G1 X167.482 Y138.358 E.45024
G1 X168.346 Y139.78 E.09069
G1 X168.51 Y140.84 E.05847
G1 X168.51 Y159.16 E.99871
G1 X168.115 Y160.776 E.09069
G1 X167.482 Y161.642 E.05847
G1 X161.642 Y167.482 E.45024
G1 X160.22 Y168.346 E.09069
G1 X159.16 Y168.51 E.05847
G1 X140.84 Y168.51 E.99871
G1 X139.224 Y168.115 E.09069
G1 X138.358 Y167.482 E.05847
G1 X132.518 Y161.642 E.45024
G1 X131.654 Y160.22 E.09069
G1 X131.49 Y159.16 E.05847
G1 X131.49 Y140.84 E.99871
G1 X131.885 Y139.224 E.09069
G1 X132.518 Y138.358 E.05847
G1 X135.41 Y135.467 E.22294
G1 X135.715 Y135.772 F21000
G1 F3000
G1 X138.663 Y132.823 E.2273
G1 X140.006 Y132.037 E.08485
G1 X140.84 Y131.922 E.04587
G1 X159.16 Y131.922 E.99871
G1 X160.666 Y132.315 E.08485
G1 X161.337 Y132.823 E.04587
G1 X167.177 Y138.663 E.45024
G1 X167.963 Y140.006 E.08485
G1 X168.078 Y140.84 E.04587
G1 X168.078 Y159.16 E.99871
G1 X167.685 Y160.666 E.08485
G1 X167.177 Y161.337 E.04587
G1 X161.337 Y167.177 E.45024
G1 X159.994 Y167.963 E.08485
G1 X159.16 Y168.078 E.04587
G1 X140.84 Y168.078 E.99871
G1 X139.334 Y167.685 E.08485
G1 X138.663 Y167.177 E.04587
G1 X132.823 Y161.337 E.45024
G1 X132.037 Y159.994 E.08485
G1 X131.922 Y159.16 E.04587
G1 X131.922 Y140.84 E.99871
G1 X132.315 Y139.334 E.08485
G1 X132.823 Y138.663 E.04587
G1 X135.687 Y135.8 E.22076
G1 X135.992 Y136.105 F21000
G1 F3000
G1 X138.968 Y133.128 E.22948
G1 X140.84 Y132.353 E.11044
G1 X159.16 Y132.353 E.99871
G1 X161.032 Y133.128 E.11044
G1 X166.872 Y138.968 E.45024
G1 X167.647 Y140.84 E.11044
G1 X167.647 Y159.16 E.99871
G1 X166.872 Y161.032 E.11044
G1 X161.032 Y166.872 E.45024
G1 X159.16 Y167.647 E.11044
G1 X140.84 Y167.647 E.99871
G1 X138.968 Y166.872 E.11044
G1 X133.128 Y161.032 E.45024
G1 X132.353 Y159.16 E.11044
G1 X132.353 Y140.84 E.99871
G1 X133.128 Y138.968 E.11044
G1 X135.963 Y136.133 E.21858
G1 X136.268 Y136.438 F21000
G1 F3000
G1 X139.273 Y133.433 E.23166
G1 X140.84 Y132.784 E.09245
G1 X159.16 Y132.784 E.99871
G1 X160.727 Y133.433 E.09245
G1 X166.567 Y139.273 E.45024
G1 X167.216 Y140.84 E.09245
G1 X167.216 Y159.16 E.99871
G1 X166.567 Y160.727 E.09245
G1 X160.727 Y166.567 E.45024
G1 X159.16 Y167.216 E.09245
G1 X140.84 Y167.216 E.99871
G1 X139.273 Y166.567 E.09245
G1 X133.433 Y160.727 E.45024
G1 X132.784 Y159.16 E.09245
M73 P0 R32
G1 X132.784 Y140.84 E.99871
G1 X133.433 Y139.273 E.09245
G1 X136.24 Y136.466 E.2164
; printing object Voron_Design_Cube_v8 (1).STL id:0 copy 0
G1 E-.56 F1800
;WIPE_START
G1 F3000
G1 X136.947 Y135.759 E-.24
;WIPE_END
EXCLUDE_OBJECT_START NAME=Voron_Design_Cube_v8_1_.STL_id_0_copy_0
G1 Z.72 F21000
G1 X163.887 Y158.699 Z.72
G1 Z.32
G1 E.8 F1800
;TYPE:Inner wall
;WIDTH:0.5
G1 F3000
G1 X158.699 Y163.887 E.39999
G1 X141.301 Y163.887 E.94846
G1 X136.113 Y158.699 E.39999
G1 X136.113 Y141.301 E.94846
G1 X141.301 Y136.113 E.39999
G1 X158.699 Y136.113 E.94846
G1 X163.887 Y141.301 E.39999
G1 X163.887 Y158.659 E.94628
G1 X164.319 Y158.878 F21000
G1 F3000
G1 X158.878 Y164.319 E.41947
G1 X141.122 Y164.319 E.96794
G1 X135.681 Y158.878 E.41947
G1 X135.681 Y141.122 E.96794
G1 X141.122 Y135.681 E.41947
G1 X158.878 Y135.681 E.96794
G1 X164.319 Y141.122 E.41947
G1 X164.319 Y158.838 E.96576
G1 X164.748 Y159.059 F21000
;TYPE:Outer wall
G1 F3000
G1 X159.056 Y164.75 E.43878
G1 X140.944 Y164.75 E.98742
G1 X135.25 Y159.056 E.43895
G1 X135.25 Y140.944 E.98742
G1 X140.944 Y135.25 E.43895
M73 P1 R32
G1 X159.056 Y135.25 E.98742
G1 X164.75 Y140.944 E.43895
G1 X164.75 Y159.02 E.98541
G1 E-.56 F1800
;WIPE_START
G1 F3000
G1 X164.045 Y159.729 E-.24
;WIPE_END
G1 Z.72 F21000
G1 X145.098 Y142.702 Z.72
G1 Z.32
G1 E.8 F1800
;TYPE:Inner wall
G1 F3000
G1 X145.37 Y142.515 E.01797
G1 X146.109 Y142.105 E.04609
G1 X146.87 Y141.774 E.04525
G1 X147.742 Y141.493 E.0499
G1 X148.572 Y141.315 E.0463
G1 X149.483 Y141.214 E.04997
G1 X150.332 Y141.205 E.0463
G1 X151.188 Y141.279 E.04684
G1 X152.005 Y141.43 E.04529
G1 X152.817 Y141.661 E.046
G1 X153.668 Y141.999 E.04995
G1 X154.423 Y142.39 E.0463
G1 X155.132 Y142.849 E.04604
G1 X155.847 Y143.422 E.04996
G1 X156.454 Y144.016 E.0463
G1 X156.998 Y144.662 E.04605
G1 X157.485 Y145.37 E.04684
G1 X157.895 Y146.109 E.04609
G1 X158.226 Y146.87 E.04525
G1 X158.507 Y147.742 E.04991
G1 X158.685 Y148.572 E.04629
G1 X158.782 Y149.411 E.04605
G1 X158.797 Y150.27 E.04685
G1 X158.723 Y151.17 E.0492
G1 X158.57 Y152.004 E.04625
G1 X158.339 Y152.817 E.04604
G1 X158.001 Y153.668 E.04995
G1 X157.61 Y154.423 E.0463
G1 X157.151 Y155.132 E.04604
G1 X156.578 Y155.847 E.04996
G1 X155.984 Y156.454 E.0463
G1 X155.338 Y156.998 E.04605
G1 X154.63 Y157.485 E.04684
G1 X153.891 Y157.895 E.04609
G1 X153.13 Y158.226 E.04525
G1 X152.258 Y158.507 E.04991
G1 X151.428 Y158.685 E.0463
G1 X150.574 Y158.783 E.04685
G1 X149.729 Y158.797 E.04609
G1 X148.83 Y158.723 E.04916
G1 X147.996 Y158.57 E.04625
G1 X147.183 Y158.339 E.04604
G1 X146.332 Y158.001 E.04995
G1 X145.577 Y157.61 E.0463
G1 X144.869 Y157.151 E.04604
G1 X144.207 Y156.626 E.04605
G1 X143.549 Y155.988 E.04995
G1 X143.002 Y155.338 E.04631
G1 X142.515 Y154.63 E.04684
G1 X142.105 Y153.891 E.0461
G1 X141.749 Y153.062 E.04916
G1 X141.474 Y152.184 E.05017
G1 X141.314 Y151.423 E.04238
G1 X141.217 Y150.574 E.04659
G1 X141.203 Y149.729 E.04609
G1 X141.277 Y148.83 E.04916
G1 X141.43 Y147.996 E.04625
G1 X141.661 Y147.183 E.04604
G1 X141.999 Y146.332 E.04995
G1 X142.39 Y145.577 E.0463
G1 X142.849 Y144.869 E.04604
G1 X143.374 Y144.207 E.04605
G1 X144.012 Y143.549 E.04995
G1 X144.662 Y143.002 E.0463
G1 X145.065 Y142.724 E.02669
G1 X145.344 Y143.055 F21000
G1 F3000
G1 X145.612 Y142.872 E.01771
G1 X146.316 Y142.484 E.04382
G1 X147.04 Y142.17 E.04301
G1 X147.871 Y141.905 E.04757
G1 X148.66 Y141.737 E.04395
G1 X149.528 Y141.643 E.04761
G1 X150.334 Y141.636 E.04395
G1 X151.148 Y141.709 E.04457
G1 X151.924 Y141.854 E.04304
G1 X152.696 Y142.075 E.04376
G1 X153.507 Y142.399 E.0476
G1 X154.222 Y142.772 E.04395
G1 X154.895 Y143.21 E.04379
G1 X155.576 Y143.757 E.0476
G1 X156.15 Y144.322 E.04394
G1 X156.666 Y144.938 E.04379
G1 X157.128 Y145.612 E.04456
G1 X157.516 Y146.316 E.04382
G1 X157.83 Y147.04 E.04301
G1 X158.095 Y147.871 E.04757
G1 X158.263 Y148.66 E.04394
G1 X158.353 Y149.458 E.0438
G1 X158.366 Y150.276 E.04457
G1 X158.294 Y151.132 E.04685
G1 X158.147 Y151.924 E.04392
G1 X157.925 Y152.696 E.04379
G1 X157.601 Y153.507 E.0476
G1 X157.228 Y154.222 E.04395
G1 X156.79 Y154.895 E.04379
G1 X156.243 Y155.576 E.0476
G1 X155.678 Y156.15 E.04394
G1 X155.062 Y156.666 E.0438
G1 X154.388 Y157.128 E.04456
G1 X153.684 Y157.516 E.04382
G1 X152.96 Y157.83 E.04301
G1 X152.129 Y158.095 E.04757
G1 X151.34 Y158.263 E.04394
G1 X150.528 Y158.354 E.04457
G1 X149.724 Y158.366 E.04382
G1 X148.868 Y158.294 E.04682
G1 X148.076 Y158.147 E.04392
G1 X147.304 Y157.925 E.04379
G1 X146.493 Y157.601 E.0476
G1 X145.778 Y157.228 E.04395
G1 X145.105 Y156.79 E.04378
G1 X144.477 Y156.29 E.0438
G1 X143.852 Y155.68 E.0476
G1 X143.334 Y155.062 E.04395
G1 X142.872 Y154.388 E.04457
G1 X142.484 Y153.684 E.04382
G1 X142.146 Y152.894 E.04682
G1 X141.886 Y152.058 E.04773
G1 X141.737 Y151.337 E.04013
G1 X141.646 Y150.528 E.04441
G1 X141.634 Y149.724 E.04382
G1 X141.706 Y148.868 E.04682
G1 X141.853 Y148.076 E.04392
G1 X142.075 Y147.304 E.04379
G1 X142.399 Y146.493 E.0476
G1 X142.772 Y145.778 E.04395
G1 X143.21 Y145.105 E.04378
G1 X143.71 Y144.477 E.0438
G1 X144.32 Y143.852 E.0476
G1 X144.938 Y143.334 E.04395
G1 X145.311 Y143.078 E.02468
G1 X145.589 Y143.41 F21000
;TYPE:Outer wall
G1 F3000
G1 X145.855 Y143.228 E.01754
G1 X146.523 Y142.862 E.04154
G1 X147.21 Y142.567 E.04078
G1 X148.001 Y142.316 E.04523
G1 X148.748 Y142.16 E.04159
G1 X149.573 Y142.072 E.04525
G1 X150.336 Y142.067 E.04159
G1 X151.109 Y142.138 E.04229
G1 X151.844 Y142.277 E.04079
G1 X152.575 Y142.489 E.04153
G1 X153.345 Y142.799 E.04524
G1 X154.021 Y143.154 E.04159
G1 X154.659 Y143.571 E.04153
G1 X155.304 Y144.092 E.04525
G1 X155.847 Y144.628 E.04159
G1 X156.335 Y145.214 E.04154
G1 X156.772 Y145.855 E.04229
G1 X157.138 Y146.523 E.04154
G1 X157.433 Y147.21 E.04078
G1 X157.684 Y148.001 E.04523
G1 X157.84 Y148.748 E.04158
G1 X157.924 Y149.505 E.04154
G1 X157.935 Y150.281 E.04229
G1 X157.864 Y151.094 E.0445
G1 X157.723 Y151.843 E.04158
G1 X157.511 Y152.575 E.04154
G1 X157.201 Y153.345 E.04524
G1 X156.846 Y154.021 E.04159
G1 X156.43 Y154.659 E.04153
G1 X155.908 Y155.304 E.04525
G1 X155.372 Y155.847 E.04159
G1 X154.786 Y156.335 E.04154
G1 X154.145 Y156.772 E.04229
G1 X153.477 Y157.138 E.04154
G1 X152.79 Y157.433 E.04078
G1 X151.999 Y157.684 E.04523
G1 X151.252 Y157.84 E.04159
G1 X150.481 Y157.925 E.04229
G1 X149.719 Y157.935 E.04155
G1 X148.906 Y157.864 E.04449
G1 X148.157 Y157.723 E.04158
G1 X147.425 Y157.511 E.04154
G1 X146.655 Y157.201 E.04524
G1 X145.979 Y156.846 E.04159
G1 X145.342 Y156.43 E.04153
G1 X144.747 Y155.953 E.04154
G1 X144.154 Y155.372 E.04524
G1 X143.665 Y154.787 E.04159
G1 X143.228 Y154.145 E.04229
G1 X142.862 Y153.477 E.04155
G1 X142.543 Y152.726 E.04449
G1 X142.299 Y151.932 E.04529
G1 X142.159 Y151.251 E.03788
G1 X142.075 Y150.481 E.04224
G1 X142.065 Y149.719 E.04155
G1 X142.136 Y148.906 E.04449
G1 X142.277 Y148.157 E.04158
G1 X142.489 Y147.425 E.04154
G1 X142.799 Y146.655 E.04524
G1 X143.154 Y145.979 E.04159
G1 X143.57 Y145.342 E.04153
G1 X144.047 Y144.747 E.04154
G1 X144.628 Y144.154 E.04524
G1 X145.213 Y143.665 E.04159
G1 X145.556 Y143.432 E.02257
G1 E-.56 F1800
;WIPE_START
G1 F3000
G1 X145.855 Y143.228 E-.08682
G1 X146.414 Y142.922 E-.15318
;WIPE_END
G1 Z.72 F21000
G1 X158.369 Y136.242 Z.72
G1 Z.32
G1 E.8 F1800
;TYPE:Bottom surface
;WIDTH:0.503281
G1 F5177.078
G1 X163.564 Y141.437 E.40357
G1 X163.564 Y142.052 E.03376
G1 X157.948 Y136.436 E.43624
G1 X157.333 Y136.436 E.03376
G1 X163.564 Y142.667 E.48399
G1 X163.564 Y143.281 E.03376
G1 X156.719 Y136.436 E.53173
G1 X156.104 Y136.436 E.03376
G1 X163.564 Y143.896 E.57948
G1 X163.564 Y144.51 E.03376
G1 X155.49 Y136.436 E.62722
G1 X154.875 Y136.436 E.03376
G1 X163.564 Y145.125 E.67497
G1 X163.564 Y145.74 E.03376
G1 X154.26 Y136.436 E.72272
G1 X153.646 Y136.436 E.03376
G1 X163.564 Y146.354 E.77046
G1 X163.564 Y146.969 E.03376
G1 X153.031 Y136.436 E.81821
G1 X152.416 Y136.436 E.03376
G1 X163.564 Y147.584 E.86595
G1 X163.564 Y148.198 E.03376
G1 X151.802 Y136.436 E.9137
G1 X151.187 Y136.436 E.03376
G1 X163.564 Y148.813 E.96144
G1 X163.564 Y149.427 E.03376
G1 X150.573 Y136.436 E1.00919
G1 X149.958 Y136.436 E.03376
G1 X163.564 Y150.042 E1.05693
G1 X163.564 Y150.657 E.03376
G1 X149.343 Y136.436 E1.10468
G1 X148.729 Y136.436 E.03376
G1 X154.208 Y141.915 E.42561
G1 X154.577 Y142.106 E.02285
G1 X155.32 Y142.586 E.0486
G1 X156.054 Y143.173 E.05163
G1 X156.689 Y143.793 E.04875
G1 X157.315 Y144.543 E.05364
G1 X157.755 Y145.192 E.04308
G1 X158.094 Y145.801 E.0383
G1 X163.564 Y151.271 E.42491
G1 X163.564 Y151.886 E.03376
G1 X158.574 Y146.896 E.38766
G1 X158.845 Y147.782 E.05094
G1 X163.564 Y152.501 E.36653
G1 X163.564 Y153.115 E.03376
G1 X159.008 Y148.56 E.35388
G1 X159.089 Y149.255 E.03847
G1 X163.564 Y153.73 E.34758
G1 X163.564 Y154.344 E.03376
G1 X159.114 Y149.894 E.3457
G1 X159.121 Y150.287 E.02157
G1 X159.103 Y150.499 E.01168
G1 X163.564 Y154.959 E.34649
G1 X163.564 Y155.574 E.03376
G1 X159.057 Y151.066 E.35014
G1 X158.973 Y151.598 E.02954
G1 X163.564 Y156.188 E.35661
G1 X163.564 Y156.803 E.03376
G1 X158.875 Y152.114 E.36427
G1 X158.739 Y152.592 E.02733
G1 X163.564 Y157.418 E.37483
G1 X163.564 Y158.032 E.03376
G1 X158.59 Y153.058 E.38638
G1 X158.416 Y153.499 E.02601
G1 X163.523 Y158.606 E.39675
G1 X163.216 Y158.913 E.02387
G1 X158.23 Y153.927 E.38732
G1 X158.02 Y154.333 E.02506
G1 X162.908 Y159.221 E.37971
G1 X162.601 Y159.528 E.02387
G1 X157.798 Y154.725 E.37308
G1 X157.557 Y155.099 E.02442
G1 X162.294 Y159.835 E.36795
G1 X161.986 Y160.143 E.02387
G1 X157.303 Y155.459 E.36382
G1 X157.03 Y155.801 E.02402
G1 X161.679 Y160.45 E.36116
G1 X161.372 Y160.757 E.02387
G1 X156.749 Y156.134 E.35912
G1 X156.445 Y156.445 E.02387
G1 X161.064 Y161.065 E.35884
G1 X160.757 Y161.372 E.02387
G1 X156.135 Y156.749 E.35908
G1 X155.799 Y157.029 E.02397
G1 X160.45 Y161.679 E.36125
G1 X160.143 Y161.986 E.02387
G1 X155.464 Y157.308 E.36342
G1 X155.099 Y157.558 E.02429
G1 X159.835 Y162.294 E.36791
G1 X159.528 Y162.601 E.02387
G1 X154.727 Y157.8 E.37293
G1 X154.332 Y158.02 E.02483
G1 X159.221 Y162.908 E.37975
G1 X158.913 Y163.216 E.02387
G1 X153.928 Y158.231 E.38725
G1 X153.5 Y158.417 E.02564
G1 X158.606 Y163.523 E.39661
G1 X158.565 Y163.564 E.00317
G1 X158.032 Y163.564 E.02928
G1 X153.057 Y158.589 E.38647
G1 X152.592 Y158.739 E.02682
G1 X157.418 Y163.564 E.37482
G1 X156.803 Y163.564 E.03376
G1 X152.108 Y158.869 E.36471
G1 X151.602 Y158.978 E.02843
G1 X156.188 Y163.564 E.35627
G1 X155.574 Y163.564 E.03376
M73 P2 R32
G1 X151.063 Y159.054 E.35037
G1 X150.502 Y159.107 E.03098
G1 X154.959 Y163.564 E.34624
G1 X154.344 Y163.564 E.03376
G1 X149.898 Y159.118 E.34539
G1 X149.713 Y159.121 E.01017
G1 X149.248 Y159.083 E.02561
G1 X153.73 Y163.564 E.34812
G1 X153.115 Y163.564 E.03376
G1 X148.552 Y159.001 E.35449
G1 X147.931 Y158.887 E.03467
G1 X147.782 Y158.845 E.00853
G1 X152.5 Y163.564 E.36657
G1 X151.886 Y163.564 E.03376
G1 X146.547 Y158.225 E.41474
G1 E-.56 F1800
;WIPE_START
G1 F5177.078
G1 X147.254 Y158.932 E-.24
;WIPE_END
G1 Z.72 F21000
G1 X153.453 Y141.775 Z.72
G1 Z.32
G1 E.8 F1800
G1 F5177.078
G1 X148.114 Y136.436 E.41474
G1 X147.499 Y136.436 E.03376
G1 X152.218 Y141.155 E.36656
G1 X151.447 Y140.999 E.04321
G1 X146.885 Y136.436 E.35442
G1 X146.27 Y136.436 E.03376
G1 X150.751 Y140.917 E.34807
G1 X150.335 Y140.881 E.02291
G1 X150.103 Y140.884 E.01275
G1 X145.656 Y136.436 E.34551
G1 X145.041 Y136.436 E.03376
G1 X149.496 Y140.891 E.34607
G1 X148.938 Y140.948 E.03081
G1 X144.426 Y136.436 E.35046
G1 X143.812 Y136.436 E.03376
G1 X148.398 Y141.022 E.35627
G1 X147.892 Y141.131 E.02843
G1 X143.197 Y136.436 E.36471
G1 X142.582 Y136.436 E.03376
G1 X147.407 Y141.261 E.37482
G1 X146.943 Y141.411 E.02682
G1 X141.968 Y136.436 E.38647
G1 X141.435 Y136.436 E.02927
G1 X141.394 Y136.477 E.00317
G1 X146.5 Y141.583 E.39661
G1 X146.072 Y141.769 E.02564
G1 X141.087 Y136.784 E.38725
G1 X140.779 Y137.092 E.02387
G1 X145.668 Y141.98 E.37975
G1 X145.273 Y142.2 E.02483
G1 X140.472 Y137.399 E.37293
G1 X140.165 Y137.706 E.02387
G1 X144.903 Y142.444 E.36804
G1 X144.539 Y142.695 E.02427
G1 X139.857 Y138.014 E.36366
G1 X139.55 Y138.321 E.02387
